X:1
T:Intermezzo
T:Overture
T:From "A Midsummer's Night Dream Incidental Music"
T:Felix Mendelssohn, Op. 61
T:Arr. for 2 pianos by the composer
C:Felix Mendelssohn, Op. 61
Z:Arr. for 2 pianos by the composer
%%score { ( 1 3 ) | ( 2 4 ) } { ( 5 7 9 ) | ( 6 8 ) }
L:1/8
Q:1/4=84
M:4/4
K:E
V:1 treble nm="Piano I" snm="Pno. I"
V:3 treble 
V:2 treble 
V:4 treble 
V:5 bass nm="Piano II" snm="Pno. II"
V:7 bass 
V:9 bass 
V:6 bass 
V:8 bass 
V:1
"^Allegro vivace"!pp! !fermata![eg]8 | !fermata![fb]8 | !fermata![ae']8 |[Q:1/4=160] [be'g']8- | %4
[Q:1/4=84] !fermata![be'g']8 |[Q:1/4=160] b8 |!p! b/e'/=d'/=c'/ b/e'/d'/c'/ b/a/=g/a/ b/a/g/a/ | %7
 b/=c'/b/a/ =g/c'/b/a/ g/f/e/f/ g/f/e/f/ | =g/b/g/b/ a/b/f/b/ g/b/g/b/ a/b/f/b/ | %9
 =g/b/g/=c'/ f/b/g/c'/ f/b/g/c'/ .[fb] z | b/e'/=d'/=c'/ b/e'/d'/c'/ b/a/=g/a/ b/a/g/a/ | %11
 b/=c'/b/a/ =g/c'/b/a/ g/f/e/f/ g/f/e/f/ | =g/b/g/b/ a/b/f/b/ g/b/g/b/ a/b/f/b/ | %13
 =g/b/g/=c'/ f/b/g/c'/ f/b/g/c'/ [fb] z |!pp! b/^c'/^a/c'/ b/c'/b/c'/ b/c'/a/c'/ b/=d'/^g/b/ | %15
 =a/b/^g/b/ a/b/g/b/ a/b/g/b/ a/=c'/^f/a/ | =g/a/f/a/ g/a/f/a/ g/a/f/a/ g/b/g/b/ | %17
 =g/b/f/a/ f/a/e/g/ ffga | b/e'/=d'/=c'/ b/e'/d'/c'/ b/a/=g/a/ b/a/g/a/ | %19
 b/=c'/b/a/ =g/c'/b/a/ g/f/e/f/ g/f/e/f/ | =g/a/f/a/ g/a/f/a/ g/b/g/b/ f/a/f/a/ | %21
 e/=g/e/g/ d/f/d/f/ [e^a]4- | [ea]4!pp! b/^c'/^a/c'/ b/c'/a/c'/ | %23
 b/c'/^a/c'/ b/=d'/^g/b/ =a/b/g/b/ a/b/g/b/ | a/b/g/b/ a/=c'/^f/a/ =g/a/f/a/ g/a/f/a/ | %25
 =g/a/f/a/ g/b/g/b/ g/b/f/a/ f/a/e/g/ | .f.f.=g.a b/e'/=d'/=c'/ b/e'/d'/c'/ | %27
 b/a/=g/a/ b/a/g/a/ b/=c'/b/a/ g/c'/b/a/ | =g/f/e/f/ g/f/e/f/ g/a/f/a/ g/a/f/a/ | %29
 =g/b/g/b/ f/a/f/a/ e/g/e/g/ d/f/d/f/ | [e^a]8 |!pp! b/=c'/^a/c'/ b/c'/a/c'/ b/c'/a/c'/ b=a/f/ | %32
 a/e/=g/e/ g/=c/f/c/ f/B/e/B/ e/B/^d/B/ |!ff! [Be]4 e'3 d'/c'/ | b3 a/g/ f/e/d/c/ B/d/f/a/ | %35
 .g.e.g.b [gc'e']3 d'/c'/ | b3 a/g/ f/e/d/c/ B/d/f/a/ | .g.[egb].[egb].[egb] [eac']3!ff! [gb] | %38
 [eac']3!ff! [gb] [eac'] z [eae'] z |!f! [egb][egb][egb][egb] [eac']3!f! [gb] | %40
 [eac']3!f! [gb] [eac'] z [eae'] z | [gb] z!ff! !>![c'e']2 !>![bd']2 !>![ac']2 | %42
 !>![gb]2 [fa]2 [eg]2 [df]2 |!f! b8- | bB/B/ ee/e/ dd/d/ aa/a/ | g z z2 z4 | z8 | %47
 [Bb]4- [Bb] z cc/c/ | BB/B/ ee/e/ dd/d/ aa/a/ | gg/g/ bb/b/ ^aa/a/ =d'd'/d'/ | %50
 c'c'/c'/ e'e' e'/^d'/c'/b/ ^a/g/f/e/ |!ff! f/b/^a/g/ f/b/a/g/ f/e/d/e/ f/e/d/e/ | %52
 f/b/^a/g/ f/b/a/g/ f/e/d/e/ f/e/d/e/ | .f[^^c^e]/B/ [df]/B/[ce]/B/ [df]/B/[ce]/B/ [df]/B/[ce]/B/ | %54
 f2 ^^f2!f! g4 |!ff! g/c'/b/a/ g/c'/b/a/ g/f/e/f/ g/f/e/f/ | %56
 g/c'/b/a/ g/c'/b/a/ g/f/e/f/ g/f/e/f/ | g[d^^f]/c/ [df]/c/[df]/c/ [df]/c/[df]/c/ [df]/c/[df]/c/ | %58
 [eg] z ^a2!f! b4 |!ff! b/e'/d'/c'/ b/e'/d'/c'/ b/a/g/a/ b/a/g/a/ | %60
 b/e'/d'/c'/ b/e'/d'/c'/ b/a/g/a/ b/a/g/a/ | [gb][f^a][gb][fa] b^bc'b | %62
 [gc'] z!ff! [^egb=d']3!>(! .[egd'].[egc'].[egb]!>)! |!pp! .[f^a].[ef].[ef].[ef] [ef]4- | %64
 [ef].[ef].[ef].[ef] [ef]4- | [ef].[ef] [ef]3 .[ef].[ef].[ef] | %66
 .[ef].[ef].[ef].[ef] .[ef].[ef].[ef].[ef] | d2 c2 e2 d2 | g2 f2 f3 e | d2 x2 x4 | g2 f2 f3 e | %71
 [Bd] z!p! b2 ^a2 =a2 | g2 d'c' b^agf | f2 b2 ^a2 =a2 | g2 d'c' b^agf |!p! f2 b2 d2 g2 | c4 ^d4 | %77
 e2 [cg]2 [df]2 B2 | [Bd]4 [^Ac]4 |!p! B2!<(! b2 ^a2 =a2 | g2!<)!!mf! d'c'!>(! b^agf!>)! | %81
!p! f2!<(! b2 ^a2 =a2 | g2!<)!!mp! d'c'!>(! b^agf!>)! |!p! [df]2"_cresc." [fd']c' b^agf | %84
 ^efd'c' b^agf |!mf! .d.f/.f/ .[db].f .[db].f.[db].f | [db] z!p! f2 =e2 d2 | c4- ccde | %88
 e2 ^A3 BcB |!f! .B.[df]/.[df]/ .[Bb].[df] .[Bb].[df].[Bb].[df] | [Bb] z!p! f2 e2 d2 | %91
 c4-"_cresc." ccde | !>!e2 d z z def |!mf! f2 ^e z z!<(! efg!<)! |!f! g2 ff ffb!f!a | %95
 g7/2!f! f/ g7/2 e/ |"_cresc." b7/2 ^a/ b7/2 g/ | =d'7/2 c'/ d'7/2 b/ | %98
 =e'^d'/c'/ b/^a/g/f/ e/d/c/B/ ^A/G/F/E/ |!ff! D z z2 z4 | z4 z2 z!ff! b/c'/ | %101
 .d'd'/c'/ .bb/c'/ .d'd'/c'/ .b.d' | c3!ff! d' c3!ff! b/c'/ | .d'd'/c'/ .bb/c'/ .d'd'/c'/ .b.d' | %104
 c3!ff! d' c3!ff! F | .B.c.d.e !>![df]>gf.d | !>!b>c'b.g !>!c'>d'c'.^a | .b.c.d.e .f.g.f.d | %108
 !>!b>c'b.g !>!c'>d'c'.^a | .d'.d' !>!B3 .d' !>!B2- | B.d' !>!B3 .d.c.B | .g.g !>!E3 .g !>!E2- | %112
 E.g !>!E3 .g.f.e |!ff! b4 b4 | b4- b!ff!.b.b.b | d'[fb].[fb].[fb] b4 | b4- b!ff!.b.b.b | %117
 [fbd']4 [egb]3 ^a/g/ | f3 e/d/ c/B/^A/G/ F/A/c/e/ | .d.B.d.f b3 [dd'] | [gg']4 [ff']4 | %121
 [Bb]2 z2 z!ff! .b.b.b | c'2!ff! b z z .b.b.b |!f! c'2 b z z!f! .b.b.b | %124
 [fc']2!f! b z [fd']2!f! b z |!ff! !>!f'2 !>!d'2 !>!b2 !>!f2 | !>!d2 !>!B2 z4 | %127
!pp! f/b/=a/=g/ f/b/a/g/ f/e/=d/e/ f/e/d/e/ | f/=g/f/e/ =d/g/f/e/ d/c/B/c/ d/c/B/c/ | %129
 =d/f/d/f/ e/=g/c/f/ d/f/d/f/ e/g/c/f/ | =d/f/d/^e/ c/f/d/e/ c/f/d/f/ [cf] z | %131
 f/b/a/=g/ f/b/a/g/ f/e/=d/e/ f/e/d/e/ | [f=d'] z [fd'] z z2 z [=dfb] | %133
 [=dfb] z [dfb] z z2 z [dfb] | [gb]8 | [gb]8 | [gb]8 | c/f/e/e/ c/f/e/d/ c/B/A/B/ c/B/A/B/ | %138
 c/=d/c/B/ A/d/c/B/ A/G/F/G/ A/G/F/G/ | A/c/B/c/ B/c/G/c/ A/c/A/c/ B/c/G/c/ | %140
 A/c/A/=d/ G/c/A/d/ G/c/A/d/ .[Gc] z | c/f/e/=d/ c/f/e/d/ c/B/A/B/ c/B/A/B/ | %142
 c/=d/c/B/ A/d/c/B/ A/G/F/G/ A/G/F/G/ | A z z2 z4 | %144
 z .[^dfa]/.[dfa]/ .=c'.[dfa] .[fac'].[dfa].[fac'].[dfa] | [a=c'^d'] z [ac'd'] z [ac'd'] z z2 | %146
{/d'e'} f'2 z2 z4 | b/e'/=d'/=c'/ b/e'/d'/c'/ b z z2 | B/e/=d/=c/ B/e/d/c/ B z z2 | %149
 e/^c/e/c/ e/c/e/c/ e/c/e/c/ e/c/e/c/- | .[ce].[B=d].c.B .^A z z2 | f/b/a/=g/ f/b/a/g/ f z z2 | %152
 F/B/A/=G/ F/B/A/G/ F z z2 | =f/=d/f/d/ f/d/f/d/ f/d/f/d/ f/d/f/d/- | %154
 .[d=f].[=ce].[B=d].[Ac] .B z z2 | B/e/=d/=c/ B/e/d/B/ ^f/^d/f/d/ f/d/f/d/ | %156
 ^g z z2 a/e/a/e/ a/e/a/e/ | g/f/e/^d/ g/f/e/d/ ^a/^^f/a/f/ a/f/a/f/ | %158
 ^b z z2 g/c'/g/c'/ g/c'/g/c'/ | a/c'/a/c'/ a/c'/a/c'/ a/c'/a/c'/ a/c'/a/c'/ | %160
 a/=d'/c'/b/ a/d'/c'/b/ a/=g/f/g/ a/g/f/g/ | a/b/a/=g/ f/b/a/g/ f/g/f/e/ =d/g/f/e/ | %162
 =d/d/c/B/ A/d/c/B/ A/B/A/=G/ F/G/F/E/ |!p! =D z !>![=da]2 !>![da]2 !>![da]2 | [^ce=g_b]8- | %165
 [cegb]2 .[=dfa]2 .[dfa]2 .[dfa]2 | [ce=g_b]8 | [=dfa]8 | [=dfb]8 | %169
 [^eg]/!pp!c'/c/c'/ c/c'/c/c'/ c/c'/c/c'/ c/c'/c/c'/ | !//-!c2 c'2 !//-!c2 c'2 | %171
 !//-!c2 c'2 !//-!c2 c'2 | c/c'/c/c'/ c/c'/c/c'/ c/c'/c/c'/ c/c'/c/c'/ | %173
 !//-!=d2 =d'2!p! !//-!d2 d'2 |!pp! !//-!=d2 =d'2 !//-!d2 d'2 | !//-!=d2 =d'2 !//-!d2 d'2 | %176
 !//-!=d2 =d'2 d/d'/d/d'/ e/e'/e/e'/ | !//-!f2 f'2 !//-!f2 f'2 | !//-!f2 f'2 !//-!f2 f'2 | %179
 !//-!f2 f'2 !//-!f2 f'2 | !//-!f2 f'2 !//-!f2 f'2 | %181
!pp! a/f'/a/f'/ a/f'/a/f'/ a/f'/a/f'/ g/e'/g/e'/ | f/d'/f/d'/ e/c'/e/c'/ d/^b/d/b/ e/=a/e/a/ | %183
 d/g/d/g/!p! ^b2 c'2 d'2 |!p! [ee']2 [^e^e']2 [ff']2 [^^f^^f']2 | [gg']8 | [gg']8 | %187
!p!!<(! [g=d'g']8!<)! | [g^d'g']8 |!p!!>(! [ge'g']8-!>)! | [ge'g']2!p! G2 F2 E2 | D2 z2 z DEF | %192
 F2 ^B, z z2 DC |[Q:1/4=150]"_ritard" C2 z2 z4 |[Q:1/4=139] z2!pp! G2 F2 E2 | %195
 D2[Q:1/4=84] !fermata!z2[Q:1/4=128] z4 |[Q:1/4=117] z4[Q:1/4=84] !fermata!z2[Q:1/4=117] z2 | %197
[Q:1/4=106] z8 |[Q:1/4=91] z8[Q:1/4=80] |[Q:1/4=84]!pp! !fermata![eg]8 | !fermata![fb]8 | %201
!pp! !fermata![ae']8 | !fermata![be'-g'-]8 |[Q:1/4=160]"^Tempo I."!ppp! [e'g']4 z4 | z8 |!pp! z8 | %206
 b/e'/=d'/=c'/ b/e'/d'/c'/ b/a/=g/a/ b/a/g/a/ | b/=c'/b/a/ =g/c'/b/a/ =g/f/e/f/ g/f/e/f/ | %208
 =g/b/g/b/ a/b/f/b/ g/b/g/b/ a/b/f/b/ | =g/b/g/=c'/ f/b/g/c'/ f/b/g/c'/ [fb] z | %210
 b/e'/=d'/=c'/ b/e'/d'/c'/ b/a/=g/a/ b/a/g/a/ | b/=c'/b/a/ =g/c'/b/a/ g/f/e/f/ g/f/e/f/ | %212
 =g/b/g/b/ a/b/f/b/ g/b/g/b/ a/b/f/b/ | =g/b/g/=c'/ f/b/g/c'/ f/b/g/c'/ [fb] z | %214
 b/^c'/^a/c'/ b/c'/b/c'/ b/c'/a/c'/ b/=d'/^g/b/ | =a/b/^g/b/ a/b/g/b/ a/b/g/b/ a/=c'/^f/a/ | %216
 =g/a/f/a/ g/a/f/a/ g/a/f/a/ g/b/g/b/ | =g/b/f/a/ f/a/e/g/ .f.f.=g.a | %218
 b/e'/=d'/=c'/ b/e'/d'/c'/ b/a/=g/a/ b/a/g/a/ | b/=c'/b/a/ =g/c'/b/a/ g/f/e/f/ g/f/e/f/ | %220
 =g/=c'/b/a/ g/c'/b/a/ g/=f/e/f/ g/f/e/f/ | =g/a/g/=f/ e/a/g/f/ e/=d/=c/d/ g2 | %222
 [e=c'] z c'3 c'c'c' | =c' z b3 bbb | b2 =c'b a=g^fe | z [ab][ab][ab] [ab]4- | %226
 [ab].[ab].[ab].[ab] [ab]4- | [ab].[ab].[ab].[ab] .[ab].[ab].[ab].[ab] | %228
 .[ab].[ab].[ab].[ab] .[ab].[ab].[ab].[ab] | g2 f2 a2 g2 | c'2 [gb]2 [gb]3 [fa] | g2 f2 a2 g2 | %232
 c'2 b2 b3 a | g z!p! e2 d2 =d2 | c2 gf e^dcB | B2 e2 d2 =d2 | c2 gf e^dcB | %237
 B2 [gbe']2 g2 [=g^c']2 | f4 ^g4 | a2 [ac']2 [gb]2 e2 | [eg]4 [df]4 |!p! e2!<(! e'2 d'2 =d'2 | %242
 c'2!<)! g'f'!>(! e'^d'c'b!>)! |!p! [gb]2!<(! [ac']2 [=ab]2 [b=d']2 | %244
 [ac']2!<)! g'f'!>(! e'^d'c'b!>)! |!p!"_cresc." b4 b3 b | ^abg'f' e'd'c'b |!f! z2 z g c'bge | %248
 z2!p! b2 a2 g2 | f4 ffga | a2 d4 fe |!f! .e.b/.b/ .[ge'].b .[ge'].b.[ge'].b | %252
 .[ge'] z!p! b2 a2 g2 |"_cresc." f4 z fga | a2 g z z g[ea]b |!mf! !>!b2 ^a.a .aabc' | %256
"_cresc." c'b^ab =d'bf'd' | c'7/2!f! ^b/ c'7/2 a/ |"_cresc." e'7/2 d'/ e'7/2 c'/ | %259
 [=g=g']7/2 [ge']/ [gc']7/2 e/ |!f! .a.f.d.B z4 | z8 | z4 z2 z e/!f!f/ | %263
 .gg/f/ .ee/f/ .gg/f/ .e.[gb] | z2 z!f! .[gb] z2 z!f! e/f/ | .gg/f/ .ee/f/ .gg/f/ .e.[gb] | %266
 z2 z!f! .[gb] z2 z!f! .B | .e.[Bf].[eg].[fa] [gb]>[ac'] [gb].[eg] | e>f e.c [df]>[eg] [df].[Bd] | %269
 .[eg].[Bf].[eg].[fa] [gb]>[ac'] [gb].[eg] | !>!e>f e.c !>![df]>[eg] [df].B | %271
!ff! .g.g !>!E3 .g E2- | Eg !>!E3 .g.f.e | .c'.c' !>!A3 .c' !>!A2 | A.c' !>!A3 .[ac'].[gb].[fa] | %275
 g z!ff! !>![c'e']2 !>![bd']2 !>![ac']2 | !>![gb]2 [fa]2 g2 f2 | b8- | bB/B/ ee/e/ ff/f/ aa/a/ | %279
 g z z2 z4 | z4 =d4- | d2 c4!f! .[cc']2 | .b2 .a2 .g2 .f2 | .^e2 d2 e2 f2 | %284
 [^eg]2 [fa]2 [ac']2 [gb]2 | [fa]2 [^eg]2 f2 [=gc'e']2 |!f! [fbd']2 [ac']2 [^gb]2 [fa]2 | %287
!ff! g2 b2 e'2 ^b2 | c'2 !>!e'>d' d'2 !>!g'>f' | e' z [aa']2!ff! c'2 f'2 | [gbe']4 [fbd']4 | %291
 [be'b']2 a'2!ff! c'2 f'2 | [gbe']4 [fbd']4 | b2!ff! [b=d']2 [ac']2 [gb]2 | [fa]2 [^eg]2 f2 z2 | %295
 .e2 .g2 [e=gc'-]4 |!ff! c'b.f.^g a2 d2 |!ff! e4 [gc'e']3 d'/c'/ | b3 a/g/ f/e/d/c/ B/d/f/a/ | %299
 .g.[Be].[eg].[gb] [ge']3 .g | c'4 b4 | e2 z2 z4 | z4 z!f! .e'.e'.e' | %303
 ([gbf']!f!e').e'.e' .e'2 z2 | z4 z!f! .e'.e'.e' | ([gbf']2 e') z z .e'.e'.e' | %306
 ([gbf']2!f! e') z z .e.e.e | (f2!f! e) z (g2!f! e) z |!ff! .[gbe']2 .[egb]2 .[eg]2 z2 | %309
 .[gb]2 .[eg]2 .e2 z2 | .[eg]2 .e2 .[gbe']2 .[egb]2 | .[eg]2 .e2 z4 | z2 .e2 .[eg]2 .[egb]2 | %313
!ff! .[gbe']2 z2 .[Be]2 z2 |!pp! b/e'/=d'/=c'/ b/e'/d'/c'/ b/a/=g/a/ b/a/g/a/ | %315
 b/=c'/b/a/ =g/c'/b/a/ g/f/e/f/ g/f/e/f/ | =g/b/g/b/ a/b/f/b/ g/b/g/b/ a/b/f/b/ | %317
 =g/b/g/=c'/ f/b/g/c'/ f/b/g/c'/ [fb] z | b/^c'/^a/c'/ b/c'/a/c'/ b/c'/a/c'/ b/=d'/^g/b/ | %319
 =a/b/^g/b/ a/b/g/b/ a/b/g/b/ a/=c'/^f/a/ | =g/a/f/a/ g/a/f/a/ g/a/f/a/ g/b/g/b/ | %321
 =g/b/f/a/ f/a/d/g/ ffga | g/e'/=d'/=c'/ b/e'/d'/c'/ b/a/=g/a/ b/a/g/a/ | %323
 b/=c'/b/a/ =g/c'/b/a/ g/f/e/f/ g/f/e/f/ | =g/a/f/a/ g/a/f/a/ g/b/g/b/ f/a/f/a/ | %325
 e/=g/e/g/ d/f/d/f/[Q:1/4=84]!pp! !fermata![e^a]4 |[Q:1/4=160]!p! [eb]8 | [ea]4 [e=g]4 | [^df]8 | %329
 e4 d4 |"_dim." =c8 | B4 ^A4 |[Q:1/4=84] !fermata!=A8 |[Q:1/4=120]"_ritardando"!pp! ^G4 c4 | %334
 B4 D4 |[Q:1/4=90] E4!pp! e'3 d'/c'/ | b3 a/g/ f3 g/a/ | g3 b!pp! e'2- (3e'd'c' | %338
 b2- (3bag f2- (3fga |[Q:1/4=90] g3 b e'4- |[Q:1/4=80] e'3 b e'4- |[Q:1/4=70] e'3 B e4- | e3 z z4 | %343
[Q:1/4=100] z8 | z8 |[Q:1/4=84] !fermata![eg]8 | !fermata![fb]8 | !fermata![ae']8 | %348
[Q:1/4=80] [gbg']8- | !fermata![gbg']8 |] %350
V:2
 !fermata!z8 | !fermata![Bd]8 | !fermata![=ce]8 |!ped! [Be]8- | !fermata![Be]8!ped-up! | [e=g]8 | %6
!pp! .[e=g].[ea].[eg].[ea] g/f/e/f/ g/f/e/f/ | .=g.[^d^f].e.[df] e/B/=G/B/ e/B/G/B/ | %8
 .e.e.[Bf].^d .e.e.[Bf].d | .e.e.[B^d].e .[Bd].e!ped!.[Bd]!ped-up! z | %10
 .[e=g].[ea].[eg].[ea] g/f/e/f/ g/f/e/f/ | .=g.[^df].e.[df] e/B/=G/B/ e/B/G/B/ | %12
 .e.e.[Bf].d .e.e.[Bf].d | .e.e.[B^d].e .[Bd].e!ped!.[Bd]!ped-up! z |!pp! .f.=g.f.g .f.g.f.=f | %15
 .e.=f.e.f .e.f.e._e | .=d._e.d.e .d.e.d.d | .^d z z2 .d.d.e.f | %18
 .[e=g].[ea].[eg].[ea] g/f/e/f/ g/f/e/f/ | .=g.[^df].g.[df] e/B/=G/B/ e/B/G/B/ | %20
 .e.[=c^d].[Be].[cd] .[Be].[=GB].[A=c].[Ac] | .B.B.[B,A].[B,A]!pp! [E=G]4- | [EG]4 .f.=g.f.g | %23
 .f.=g.f.=f .e.f.e.f | .e.=f.e._e .=d.e.d.e | .=d._e.d.d!ped! .^d!ped-up! z z2 | %26
 .d.d.e.f .[e=g].[ea].[eg].[ea] | =g/f/e/f/ g/f/e/f/ .g.[^df].e.[df] | %28
 e/B/=G/B/ e/B/G/B/ .e.[=c^d].[Be].[cd] | .[Be].[=GB].[A=c].[Ac] .B.B.[B,A].[B,A] | %30
!pp!!ped! [E=G]8!ped-up! |!pp! .[^df=a].[dfa].[dfa].[dfa] .[dfa].[dfa].[dfa] z | z8 | %33
 z4 [Gce]3 d/c/ | B3 A/G/ F/E/D/C/ B,/D/F/A/ | .G.[EGB].[EGB].[EGB] [Gce]3 d/c/ | %36
 B3 A/G/ F/E/D/C/ B,/D/F/A/ | .G.[GB].[GB].[GB] [Ac]3 [GB] | [Ac]3 [GB] [Ac] z [A=c] z | %39
 [GB][GB][GB][GB] [Ac]3 [GB] | [Ac]3 [GB] [Ac] z [A=c] z | [GB] z!ped! z2 z2 !>!e2!ped-up! | %42
!ped! !>!d2 !>!c2 !>!B2 !>!A2!ped-up! |!ped! G2 A2 B2 cd!ped-up! | e z z B [AB][AB][FBd][FBd] | %45
 [GBe] z!ped! !>![ce]2!f! !>![Bd]2 !>![Ac]2!ped-up! | !>![GB]2 [FA]2 G2 F2 | %47
 z!f! E/E/ AA/A/ GG/G/ z2 | z2 ^AA [=AB][AB][FBd][FBd] | [GBe][GBe][FB][FB] [F^A][FA][B=d][Bd] | %50
 cccc c^a/g/ f/e/^d/c/ | d^^c/B/ d/B/c/B/ .d.B.B.B | d/B/^^c/B/ d/B/c/B/ .d.B.B.B | .B z z2 z4 | %54
 z B/d/ B/d/B/d/ ^B/d/B/d/ B/d/B/d/ | .c.[ce].[ce].[ce] .[ce] z z2 | %56
 .[ce].[ce].[ce].[ce] .[ce] z z2 | z8 | z c/e/ c/e/c/e/ d/f/d/f/ d/f/d/f/ | %59
 e/g/e/g/ e/g/e/g/ .e.e.e.e | e/g/e/g/ e/g/e/g/ .e.e.e.e | [GB][F^A][GB][FA] B^BcB | %62
 [Gc] z [^EGB=d]3 [EGd][EGc][EGB] | [F^A]2 z2 z GFG | F z z2 z GFG | F z z G F z z2 | z8 | %67
!ped! F4!ped-up!!ped! B2 ^A2!ped-up! | G2!ped! B4 F2!ped-up! | %69
!ped! F4!ped-up!!ped! E2 [DF]2!ped-up! |!ped! [EG]2 F2 G2!ped-up! F2 | %71
 F z!ped! B2 ^A2 =A2!ped-up! | G2!ped! dc B^AGF!ped-up! | F2!ped! B2 ^A2 =A2!ped-up! | %74
 G2!ped! dc B^AGF!ped-up! |!ped! F2 B2!ped-up!!ped! z2 [GB]2!ped-up! | [F^A]4 [^DF=A]4 | %77
!ped! [EG]2 ^A2!ped-up!!ped! B2 x2!ped-up! | F8 | [DF]2!ped! B2 ^A2 =A2!ped-up! | %80
 G2!ped! dc B^AG!ped-up!F |!ped! F2 B2!ped-up!!ped! ^A2 =A2!ped-up! | G2!ped! [^Ad]c BAG!ped-up!F | %83
 F2!ped! dc B^AG!ped-up!F |!ped! ^EFdc!ped-up!!ped! B^AGF!ped-up! | %85
 z .[DF]/.[DF]/ .B.[DF] .B.[DF].B.[DF] | B z!ped! D2 =E2 F2!ped-up! | =G4- G!ped!GFE!ped-up! | F8 | %89
 .D.[DF]/.[DF]/ .[DF].[DF] .[DF].[DF].[DF].[DF] | [DF] z D2 E2 F2 | ^G8!ped!!ped-up! | %92
 !>!A4- A!ped!DEF!ped-up! | B8!ped!!ped-up! | [GB]2 FF FFBF | G7/2 [GB]/ [GB]7/2 [GB]/ | %96
 [GB=d]7/2 [GBd]/ [GBd]7/2 [GBd]/ | [GB=d^e]7/2 [GBde]/ [GBde]7/2 [GBde]/ | [^Ac=ef]4 z4 | z8 | %100
 z4 z2 z d/e/ | .ff/e/ .dd/e/ .ff/e/ .d z | z4 z2 z d/e/ | .ff/e/ .dd/e/ .ff/e/ .d z | z8 | %105
 z .F.B.c !>!F>GF.D | !>!B3 .G !>!c3 .F | .B.F.B.c .d.c.d.B | !>!B3 .G !>!c3 .^A | .d z z2 z4 | %110
 z8 | z8 | z8 | z .B.B.B e3 B | e3 B e4 | z .B.B.B e3 B | e3 B e4 | [Bd]4 B3 ^A/G/ | F3 z z4 | %119
 z4 B3 B/^A/ | G3 e/d/ c/B/^A/G/ F/E/D/C/ | .B,.[B,F].[B,F].[B,F] [EG]2 [B,F] z | %122
 z .[Bf].[Bf].[Bf] [eg]2 [Bf] z | z .[Bf].[Bf].[Bf] [eg]2 [Bf] z | c2 B z d2 B z | %125
!ped! !>!f2 !>!d2 !>!B2 z2!ped-up! |!ped! z8!ped-up! | .[B=d].[Be].[Bd].[Be] d/c/B/c/ d/c/B/c/ | %128
 .=d.[^Ac].B.[Ac] B/F/=D/F/ B/F/D/F/ | .B.B.[Fc].^A .B.B.[FB].A | .B.B.[F^A].B .[FA].B.[FA] z | %131
 [F=d] z [Fd] z z4 | B/e/=d/c/ B/e/d/c/ B z z2 | z8 | z8 | z8 | z8 | %137
 [FA][FB][FA][FB] A/G/F/G/ A/G/F/G/ | .A.[FG].F.[FG] F/C/A,/C/ F/C/A,/C/ | %139
 .F.F.[CG].^E .F.F.[CG].E | .F.F.[C^E].F .[CE].F.[CE] z | z4 [ac']4- | [ac'] z z2 [ac']4- | %143
 [ac'] z z2 [FA]4- | [FA] z z2 z2 z .[FA=c]/.[FAc]/ | .f.[A=c].f.[Ac] .f.[Ac].f.[Ac] | %146
 [=cda] z [cda] z [cda] z z2 | z4 e/a/=g/f/ e/a/g/f/ | z4 E/A/=G/F/ E/A/G/F/ | %149
!ped! E z z2 z4!ped-up! | z2 .^A.=G .F.[EG].[DF].[CE] | [B,=D] z z2 B/e/=d/c/ B/e/d/c/ | %152
 z4 B,/E/=D/C/ B,/E/D/C/ |!ped! =D z z2 z4!ped-up! | z4 .=G.[=FA].[EG].[=DF] | E z z2 z4 | %156
 e/=d/^c/B/ e/d/c/B/ A z z2 |!ped! z4!ped-up! z .e.e.e | %158
!ped! g/f/e/d/ g/f/e/d/!ped-up!!ped! z4!ped-up! |!ped! [e=g]4- [eg][eg][eg][eg]!ped-up! | %160
 z .A/.A/ .[F=d].A .[Fd].A.[Fd].A | [F=d] z [FA][FA] [FA][FA][FA][FA] | [FA] z z2 z4 | %163
 z2!ped! [=DFA]2 [DFA]2 [DFA]2!ped-up! | [_B,E=G_B]8- | [B,EGB]2 .[=DFA]2 .[DFA]2 .[DFA]2 | %166
!ped! [_B,E=G_B]8!ped-up! |!ped! [A,=DFA]8!ped-up! |!ped! [B,=DFB]8!ped-up! | %169
!ped! [C^EG]4- [CEG] z z2!ped-up! |!ped! z8!ped-up! |!ped! z8!ped-up! | %172
!ped! z4 z2!ped-up!!pp! .[=GA] z | .[FA]!ped! z z2 z4!ped-up! |!ped! z8!ped-up! |!ped! z8!ped-up! | %176
!ped! z4 z2!ped-up! .B z |!p! z4 z2 .e z | .=d z .c z .B z .A z | .=G z !>!F4- x2 | F8 | %181
!ped! [FA]/^d/[FA]/d/ [FA]/d/[FA]/d/ [FA]/d/[FA]/d/!ped-up!!ped! ee!ped-up! | %182
!ped! ^BBcc!ped-up!!ped! =AAcc!ped-up! | %183
!ped! ^BB!ped-up!!ped! d/f/d/f/!ped-up!!ped! c/e/c/e/!ped-up!!ped! ^B/d/B/d/!ped-up! | %184
!ped! cc=BB!ped-up!!ped! ^AA=AA!ped-up! |!ped! G8!ped-up! | G8 | [G^e]8 | [F^Bf]8 | [ce]8- | %190
 [ce]2 z2 z4 | z8 | z8 | z8 | z8 | z2 !fermata!z2 z DEF | F2 ^B,2 !fermata!z2 D!pp!C | %197
 C2 z2 C2 z2 |!>(!!ped! C2 C2 C2 C2!>)!!ped-up! | C2 z2 !fermata!z4 | !fermata![Bd]8 | %201
 !fermata![=ce]8 | !fermata![Be]8 | [egb]8- | [egb]8 | [e=gb]8 | %206
 .[e=g].[ea].[eg].[ea] g/f/e/f/ g/f/e/f/ | .=g.[^df].e.[df] e/B/=G/B/ e/B/G/B/ | %208
 .e.e.[Bf].^d .e.e.[Bf].d | .e.e.[B^d].e .[Bd].e.[Bd] z | .[e=g].[ea].[eg].[ea] g/f/e/f/ g/f/e/f/ | %211
 .=g.[^df].e.[df] e/B/=G/B/ e/B/G/B/ | .e.e.[Bf].^d .e.e.[Bf].d | .e.e.[B^d].e .[Bd].e.[Bd] z | %214
 .[df].[e=g].[df].[eg] .[df].[eg].[df].[=d=f] | .[^ce].[=d=f].[ce].[df] .[ce].[df].[ce].[=c_e] | %216
 .[B=d].[=c_e].[Bd].[ce] .[Bd].[ce].[Bd].[Bd] | .=c.c.^c.c .^d.d.e.f | %218
 .[e=g].[ea].[eg].[ea] g/f/e/f/ g/f/e/f/ | .=g.[^df].e.[df] e/^d/^c/d/ e/d/c/d/ | %220
 e/=c/e/c/ e/c/e/c/ e/=d/c/d/ e/d/c/d/ | e/=f/e/=d/ =c/f/e/d/ c/B/A/B/ c/B/A/B/ | %222
 =c[=d^f]/a/ [e=g]/a/[df]/a/ [eg]/a/[df]/a/ [eg]/a/[df]/a/ | [e=g] z =d/=f/d/f/ d/f/d/f/ d/f/d/f/ | %224
 =d/=f/d/f/ d/f/d/f/ e z z2 | B/e/^d/c/ B/e/d/c/ B=cBc | B/=g/f/e/ ^d/g/f/e/ d=cBc | %227
 B/e/^d/^c/ B/e/d/c/ B/=g/f/e/ d/g/f/e/ | .d z .[AB]2 .[AB]2 .[AB]2 | [Be]4 e4 | e4 [ce]2 [Bd]2 | %231
 B4 A2 G2 | c2 B2 [ce]2 d2 | e z E2 D2 =D2 | C2 GF E^DCB, | B,2 E2 D2 =D2 | C2 GF E^DCB, | %237
 B,2 e2 [ce]2 [ce]2 | [Bd]4 [GB=d]4 | [Ac]2 [c^d]2 [Be]2 A2 | B8 | B2 e6 | e2 gf e^dcB | B2 e6 | %244
 [ce]2 gf e^dcB | B2 gf e^dcB | ^ABgf edcB | cBe z z4 | B2 z2 =d4 | c4 =c4 | B4 A4 | %251
 .G.B/.B/ .[Ge].B .[Ge].B.[Ge].B | .[Ge] z G2 A2 B2 | c8 | d3 z x4 | !>!B2 ^A.A .AABc | %256
 cB^AB =dBfd |"^più" c7/2 ^B/ c7/2 c/ | [ce]7/2 [ce]/ [ce]7/2 [ce]/ | [ce]7/2 [ce]/ [ce]7/2 c/ | %260
 z4 .A.F.D.B, | z8 | z2!f! !>!B2 !>!B2 !>!BG/A/ | .BB/A/ .GG/A/ .BB/A/ .G z | [DF]3 z [DF]3 G/A/ | %265
 .BB/A/ .GG/A/ .BB/A/ .G z | [DF]3 z [DF]3 z | .[EG].F.G.A B>c BG | [EG]4 [DFA]4 | %269
 .[EG].F.G.A B>c B.G | [EG]4 [DFA]4 | [E^A]2 z2 z4 | z8 | [FA]2 z2 z4 | z4 z .[Bd].[ce].d | %275
 e z!ped! z2 z2 !>!e2!ped-up! |!ped! !>!d2 !>!c2 !>!B2 !>!A2!ped-up! | %277
!ped! G2!ff! A2 B2 cd!ped-up! | e z [EGc][EGc] [EFc][EFc] [DFB][DFB] | %279
 [EGB] z!ped! !>![ce]2 !>![B=d]2 !>![Ac]2!ped-up! | !>![GB]2 !>!A2 G2!ff! F2 | [EGB]6 z2 | %282
 .B2 .A2 .[GB]2 .[FB]2 | .[^EB]2 A2 c4 | c4 [Ac]2 [GB]2 | [FA]2 [^EG]2 F2 [ce]2 | %286
 [Bd]2 [Ac]2 [^GB]2 A2 | G2 B2 e2 ^B2 |!ped! c2 !>!e>d!ped-up! d2!ped! !>!g>f | %289
 e!ped-up! z!ped! c2 c2 f2!ped-up! | [Be]4 [Bd]4 |!ped! B2 a2!ped-up!!ped! c2 f2!ped-up! | %292
 [Be]4 [Bd]4 |!ped! B2 [B=d]2!ped-up!!ped! [Ac]2 [Bc]2!ped-up! | [Ac]2 [GBc]2 [Ac]2 c2 | %295
 z2 z2 [^Ac-]4 | cB z2 [Ac]2 [DFAB]2 | [EGB]4!ped! e3 d/c/!ped-up! | B3 A/G/ F/E/D/C/ B,/D/F/A/ | %299
 .G.E.G.B!ped! e3 e/d/!ped-up! |!ped! c3!ff! a/g/!ped-up! f/!ff!e/d/c/ B/A/G/F/ | E2 z2 z4 | %302
 z4 z .e.e.e | ([GBf]e).e.e .e2 z2 | z4 z .e.e.e | ([GBf]2 e) z z .e.e.e | ([GBf]2 e) z z4 | %307
 [EGB]3 z [EGB]3 z | .e2 .B2 .[GB]2 z2 | .[Be]2 .[GB]2 .[GB]2 z2 | .[GB]2 .[EGB]2 .e2 .B2 | %311
 .B2 .B2 .[GB]2 .[EG]2 | .E2 .[EGB]2 .[EGB]2 .[EGB]2 |!ped! .[EGBe]2 z2 .[EG]2 z2!ped-up! | %314
 [e=g][eg][eg][eg] g/f/e/f/ g/f/e/f/ | =g[^df]e[df] e/B/=G/B/ e/B/G/B/ | %316
 [Be][Be][Bf][B^d] [Be][Be][Bf][Bd] | ee[Bd]e [Bd]e[Bd] z | .f.=g.f.g .f.g.f.=f | %319
 .e.=f.e.f .e.f.e._e | .=d._e.d.e .d.e.d.d | .^d z z2 .d.d.e.f | %322
 .[e=g].[ea].[eg].[ea] g/f/e/f/ g/f/e/f/ | .=g.[^df].e.[df] e/B/=G/B/ e/B/G/B/ | %324
 .e.[=c^d].[Be].[cd] .[=GBe].[GBe].[A=c].[Ac] | .B.B.[B,A].[B,A] !fermata![E=G]4 | [E=G]8 | %327
!ped! [EA]4 [=GB]4!ped-up! | [A=c]8 | B8 | [^DFA]8 |!ped! [E=G]8!ped-up! | !fermata!D8 |!ped! E8- | %334
 E4!ped-up! z4 | z4!ped! e3 d/c/!ped-up! |!ped! B3 A/G/!ped-up!!ped! F3 G/A/!ped-up! | %337
!ped! G3 B!ped-up!!ped! e2- (3edc!ped-up! |!ped! B2- (3BAG!ped-up!!ped! F2- (3FGA!ped-up! | G4 A4 | %340
 G4 A4 | G4 A4 | G4 z4 | z8 | z8 | z8 | !fermata![Bd]8 | !fermata![=ce]8 | [GBe]8- | %349
 !fermata![GBe]8 |] %350
V:3
 x8 | x8 | x8 | x8 | x8 | x8 | x8 | x8 | x8 | x8 | x8 | x8 | x8 | x8 | x8 | x8 | x8 | x8 | x8 | %19
 x8 | x8 | x8 | x8 | x8 | x8 | x8 | x8 | x8 | x8 | x8 | x8 | x8 | x8 | x8 | x8 | x8 | x8 | x8 | %38
 x8 | x8 | x8 | x8 | x8 | x8 | x8 | x8 | x8 | x8 | x8 | x8 | x8 | x8 | x8 | x8 | d z x2 x4 | x8 | %56
 x8 | x8 | x8 | x8 | x8 | x4 g4 | x8 | x8 | x8 | x8 | x8 | x8 | x4 f2 c2 | B2 c2 [Be]2 d2 | B6 c2 | %71
 x8 | x8 | x8 | x8 | f4 d2 =d2 | x8 | x8 | x8 | x8 | e6 e2 | d4 e2 f2 | e6 e2 | x8 | x8 | x8 | x8 | %87
 x8 | x8 | x8 | x8 | x8 | x8 | =d8 | x8 | x8 | x8 | x8 | x8 | x8 | x8 | x8 | x8 | x8 | x8 | x8 | %106
 x8 | x8 | x8 | x8 | x8 | x8 | x8 | .d.f.f.f g3!ff! f | g3!ff! f g4 | x4 g3!ff! f | g3!ff! f g4 | %117
 x8 | x8 | x8 | x8 | x8 | x8 | x8 | x8 | x8 | x8 | x8 | x8 | x8 | x8 | x8 | x8 | x8 | x8 | x8 | %136
 x8 | x8 | x8 | x8 | x8 | x8 | x8 | x8 | x8 | x8 | x8 | x8 | x8 | x8 | x8 | x8 | x8 | x8 | x8 | %155
 x8 | x8 | x8 | x8 | x8 | x8 | x8 | x8 | x8 | x8 | x8 | x8 | x8 | x8 | x8 | x8 | x8 | x8 | x8 | %174
 x8 | x8 | x8 | x8 | x8 | x8 | x8 | x8 | x8 | x8 | x8 | x8 | x8 | x8 | x8 | x8 | x8 | x8 | x8 | %193
 x8 | x8 | x8 | x8 | x8 | x8 | x8 | x8 | x8 | x8 | x8 | x8 | x8 | x8 | x8 | x8 | x8 | x8 | x8 | %212
 x8 | x8 | x8 | x8 | x8 | x8 | x8 | x8 | x8 | x6 e/=d/=c/d/ | z8 | x8 | x8 | x8 | x8 | x8 | x8 | %229
 x8 | x8 | e4 e4 | e4 g2 f2 | x8 | x8 | x8 | x8 | x8 | x8 | x8 | x8 | x8 | x4 a4 | x8 | x4 a4 | %245
 g z z2 x4 | x8 | x8 | x8 | x8 | x8 | x8 | x8 | x8 | x8 | [e=g]8 | [e^g]4 x4 | x8 | x8 | x8 | x8 | %261
 x8 | x8 | x8 | x8 | x8 | x8 | x8 | x8 | x8 | x8 | x8 | x8 | x8 | x8 | x8 | x8 | x8 | x8 | x8 | %280
 x8 | x8 | x8 | x8 | x8 | x8 | x8 | x8 | x8 | x8 | x8 | x8 | x8 | x8 | x8 | x8 | x8 | x8 | x8 | %299
 x8 | x8 | x8 | x8 | x8 | x8 | x8 | x8 | x8 | x8 | x8 | x8 | x8 | x8 | x8 | x8 | x8 | x8 | x8 | %318
 x8 | x8 | x8 | x8 | x8 | x8 | x8 | x8 | x8 | x8 | x8 | x8 | x8 | x8 | x8 | x8 | x8 | x8 | x8 | %337
 x8 | x8 | x8 | x8 | x8 | x8 | x8 | x8 | x8 | x8 | x8 | x8 | x8 |] %350
V:4
 x8 | x8 | x8 | x8 | x8 | x8 | x8 | x8 | x8 | x8 | x8 | x8 | x8 | x8 | x8 | x8 | x8 | x8 | x8 | %19
 x8 | x8 | x8 | x8 | x8 | x8 | x8 | x8 | x8 | x8 | x8 | x8 | x8 | x8 | x8 | x8 | x8 | x8 | x8 | %38
 x8 | x8 | x8 | x8 | x8 | x8 | x8 | x8 | x8 | x8 | x8 | x8 | x8 | x8 | x8 | x8 | x8 | x8 | x8 | %57
 x8 | x8 | x8 | x8 | x4 G4 | x8 | x8 | x8 | x8 | x8 | x8 | x2 F2 G2 F2 | D2 z2 x4 | x8 | x8 | x8 | %73
 x8 | x8 | x8 | x8 | x2 G2 F2 E2 | D4 E4 | x8 | x8 | x8 | x8 | x8 | x8 | x8 | x2 B,6 | B,8 | x8 | %89
 x8 | x8 | x8 | x8 | F2 ^E z z EFG | x8 | x8 | x8 | x8 | x8 | x8 | x8 | x8 | x8 | x8 | x8 | x8 | %106
 x8 | x8 | x8 | x8 | x8 | x8 | x8 | x8 | x8 | x8 | x8 | x8 | x8 | x8 | x8 | x8 | x8 | x8 | x8 | %125
 x8 | x8 | x8 | x8 | x8 | x8 | x8 | x8 | x8 | x8 | x8 | x8 | x8 | x8 | x8 | x8 | x8 | x8 | x8 | %144
 x8 | x8 | x8 | x8 | x8 | x8 | x8 | x8 | x8 | x8 | x8 | x8 | x8 | x8 | x8 | x8 | x8 | x8 | x8 | %163
 x8 | x8 | x8 | x8 | x8 | x8 | x8 | x8 | x8 | x8 | x8 | x8 | x8 | x8 | !>!F8- | F8- | %179
 .F x .F z .E z .=D z | .C z .B, z .^A, z .=A, z | x8 | x8 | x8 | x8 | x8 | x8 | x8 | x8 | x8 | %190
 x8 | x8 | x8 | x8 | x8 | x8 | x8 | x8 | x8 | x8 | x8 | x8 | x8 | x8 | x8 | x8 | x8 | x8 | x8 | %209
 x8 | x8 | x8 | x8 | x8 | x8 | x8 | x8 | x8 | x8 | x8 | x8 | x8 | x8 | x8 | x8 | x8 | x8 | x8 | %228
 x8 | G2 z2 e2 d2 | [Ac]2 B2 x4 | x8 | x8 | x8 | x8 | x8 | x8 | x8 | x8 | x8 | G4 A4 | %241
 G2 e2 d2 =d2 | c2 x2 x4 | x2 e2 d2 =d2 | x8 | x8 | x8 | x8 | x8 | x8 | x8 | x8 | x8 | z4 z FGA | %254
 A2 G z z GAB | x8 | x8 | x8 | x8 | x8 | x8 | x8 | x8 | x8 | x8 | x8 | x8 | x8 | x8 | x8 | x8 | %271
 x8 | x8 | x8 | x8 | x8 | x8 | x8 | x8 | x8 | x8 | x8 | x8 | x2 F2 G2 A2 | B2 A2 x4 | x8 | x8 | %287
 x8 | x8 | x8 | x8 | x8 | x8 | x8 | x8 | x8 | x8 | x8 | x8 | x8 | x8 | x8 | x8 | x8 | x8 | x8 | %306
 x8 | x8 | x8 | x8 | x8 | x8 | x8 | x8 | x8 | x8 | x8 | x8 | x8 | x8 | x8 | x8 | x8 | x8 | x8 | %325
 x8 | x8 | x8 | x8 | =G4 F4 | x8 | x8 | x8 | x8 | x8 | x4 G4 | x8 | x4 G4- | G2 x2 x4 | x8 | x8 | %341
 x8 | x8 | x8 | x8 | x8 | x8 | x8 | x8 | x8 |] %350
V:5
 z8 | z8 |!pp! !fermata![A,E]8 | [G,B,E]8- | !fermata![G,B,E]8 | z8 | z8 | z8 | z8 | z8 | %10
 E z z2 z4 | z8 | z8 | z8 |[K:treble]!pp! d/e/c/e/ d/e/c/e/ d/e/c/e/ d/=d/B/d/ | %15
 c/=d/B/d/ c/d/B/d/ c/d/B/d/ c/=c/A/c/ | B/=c/A/c/ B/c/A/c/ B/c/A/c/ B[=GB] | %17
 [A=c][Ac][^A^c][Ac] B=A/B/ =G/B/F/B/ | E z z2 z4 | z8 | z8 | z4 C4- | %22
 C4 D!pp! [Fc]/e/ [Bd]/e/c/e/ | d/e/c/e/ d/=d/B/d/ c/d/B/d/ c/d/B/d/ | %24
 c/=d/B/d/ c/=c/B/c/ B/c/A/c/ B/c/A/c/ | B/=c/A/c/ B[=GB] [A=c][Ac][^A^c][Ac] | %26
 B=A/B/ =G/B/F/B/ E z z2 | z4!pp! .E.E.E.E | .E.E.E.E .E.E.E.E | .E z z2 z4 |!pp! C8 | %31
 D z z2 z2 z B | [EB][EB][A,A][A,A] [B,=G][B,G][B,F][B,F] |!ff! [B,E^G]4[K:bass] [E,G,CE]4 | %34
 [E,G,B,E]4 [D,F,]4 | .[E,G,].[E,G,B,].[E,G,B,].[E,G,B,] [E,G,CE]4 | [E,G,B,E]4 [D,F,]4 | %37
 [E,G,][E,G,B,]/E/ [E,G,B,]/E/[E,G,B,]/E/ [E,A,C]/!ff!E/E,/E/ E,/E/[E,G,B,]/E/ | %38
 [E,A,C]/!ff!E/E,/E/ E,/E/[E,G,B,]/E/ [E,A,C]/E/[E,A,C]/E/ [E,A,=C]/E/[E,A,C]/E/ | %39
!f! [E,G,B,]/E/[E,G,B,]/E/ [E,G,B,]/E/[E,G,B,]/E/ [E,A,^C]/!f!E/E,/E/ E,/E/[E,G,B,]/E/ | %40
 [E,A,C]/!f!E/E,/E/ E,/E/[E,G,B,]/E/ [E,A,C]/E/[E,A,C]/E/ [E,A,=C]/E/[E,A,C]/E/ | %41
!ff! [G,B,] z z2 z4 | z2!f! !>!E2 !>!D2 !>![CE]2 | !>![B,D]2 !>![A,C]2 B,4- | %44
 B, G,/B,/ G,G,/B,/ [F,A,][F,A,]/B,/ [D,F,A,][D,F,A,]/B,/ |!ff! [E,G,] z z2 z2 !>!E2 | %46
 !>!D2 C2 B,2 A,2 | G, x x2 x4 | EE/!f!B,/ [CE][CE]/^A,/ [B,D][B,D]/A,/ [B,D][B,D]/A,/ | %49
 [G,E][G,B,][F,B,][F,B,] [^A,E][A,E]/F,/ [B,E][B,E]/F,/ | %50
 [CE][CE]/F,/ [CE][CE]/B,/ ^A,/B,/C/D/[K:treble] E/F/G/^A/ |!ff! B[C^E][DF][CE] [DF]4 | %52
 [DF]!ff![^^C^E][DF][CE] [DF]4 | [DF]!ff![^^C^E][DF][CE] [DF][CE][DF][CE] | %54
 [B,DF]2 [B,D^^F]2 [^B,D^FG]4 |!ff! [EG][D^^F][EG][DF] [EG]4 | [EG]!ff![D^^F][EG][DF] [EG]4 | %57
 [EG][D^^F][EG][DF] [EG][DF][EG][DF] | [G,EG]2 [=G,^A,CE=G]2 [=A,B,D^F]4 | %59
 [^G,B,E]3 [G,B,E]/[G,B,E]/ [G,B,E][G,B,E][G,B,E][G,B,E] | %60
 [B,G]2 [G,E][G,B,EG]/[G,B,EG]/ [G,B,EG][G,B,EG][G,B,EG][G,B,EG] | %61
[K:bass] [G,B,][^^F,^A,][G,B,][F,A,] [G,B,]2 [G,B,]2 | %62
 [G,B,] z!ff! [G,B,=D]3 .[^E,G,B,D].[^E,G,B,D].[^E,G,B,D] |!pp! [F,^A,C]2 z2 z!pp! B,[A,CE]B, | %64
 [F,^A,D]2 z2 z B,[A,CE]B, | [F,^A,C] z z B, [A,CE] z z2 | z2 [F,^A,]2 [F,A,]2 [F,A,]2 | %67
 B,/C/B,/C/ B,/C/B,/C/ B,/^A,/B,/A,/ B,/A,/B,/A,/ | %68
 B,/^A,/B,/A,/ B,/D/C/B,/ C/D/C/B,/ A,/C/B,/A,/ | %69
 B,/C/B,/C/ B,/C/B,/C/ B,/^A,/B,/A,/ B,/A,/B,/A,/ | %70
 B,/^A,/B,/A,/ B,/D/C/B,/ C/D/C/B,/ A,/C/B,/A,/ |!p! B, z[K:treble]!p! [B,D]2 [CE]2 [DF]2 | %72
 E4 F2 E2 | [B,D]4 [CE]2 [DF]2 | E2 =G2 F2 [G,CE]2 | [B,D]2[K:bass] [B,D]4 [B,=D]2 | C4 ^B,4 | %77
 C2 ^A,2 =B,4 | F,8 |!p! z2!<(! D,2 [C,E,]2 [D,F,]2 | x2!<)! E4 x2 | %81
!p! [B,D]2!<(! D,2 [C,E,]2 [D,F,]2!<)! | x2 E4 x2 |!p! [B,D]2"_cresc." [F,B,D]2 [F,^A,E]4 | %84
 [B,D]2 [F,B,D]2 E4 |!mf! z2 .[D,F,B,] z .[D,F,B,] z .[D,F,B,] z | .[D,F,B,] z B,,2 C,2 D,2 | %87
 E,4- E,E,F,=G, | ^A, C4 A,2 z |!f! .B,.F,/.F,/ .[D,B,].F, .[D,B,].F,.[D,B,].F, | B,8 | %91
 B,[B,,B,][B,,B,][B,,B,] [B,,B,][B,,B,][B,,B,][B,,B,] | %92
"_cresc." z [B,,B,][B,,B,][B,,B,] [B,,B,][B,,B,][B,,B,][B,,B,] | %93
!mf! z [B,,B,][B,,B,][B,,B,] [B,,B,][B,,B,][B,,B,][B,,B,] | %94
"_cresc." z [B,,B,][B,,B,][B,,B,] [B,,B,][B,,B,][B,,B,][B,,B,] | %95
 G,>[G,B,E]!f! [G,B,E]7/2 [G,B,E]/ [G,B,E]2 | %96
"_cresc." z3/2 [G,B,=D]/ [G,B,D]7/2 [G,B,D]/ [G,B,D]2 | %97
 z3/2 [G,B,=D^E]/ [G,B,DE]7/2 [G,B,DE]/ [G,B,DE]2 | %98
!f! !//-![F,C=E]2 F2 [F,C]/F/[F,C]/F/ F,/C/F,/C/ | B,!ff! z z2 z4 | %100
 z2 !>![F,F]2 !>![F,F]2 !>![F,F]2 | !>![F,F]2 !>![F,F]2 !>![F,F]2 !>![F,F]2 | %102
 [=G,=G]3!ff! [F,F] [G,G]3!ff! [F,F] | !>![F,F]2 !>![F,F]2 !>![F,F]2 !>![F,F]2 | %104
 [=G,=G]3!ff! [F,F] [G,G]3!ff! F, | .B,.C.D!f!.E .D.C.D.B, | [B,D]4 [^A,E]4 | %107
 [B,D]2 z .E .D.C.D.B, | [B,D]4 [^A,E]4 | [G,B,^E]2!ff! [^E,G,B,E]4 [E,G,B,E]2- | %110
 [E,G,B,E]2 [^E,G,B,^E]4 [E,G,B,E]2 | [=E,F,^A,C]2 [E,F,A,C]4 [E,F,A,C]2- | %112
 [E,F,A,C]2 [E,F,^A,C]4 [C,F,A,C]2 | .[D,F,B,]!ff!.[B,F]!ff!.[B,F].[B,F] [EG]3!ff! [B,F] | %114
 [EG]3!ff! [B,F] [EG]4 |!ff! .[B,F].[B,F].[B,F].[B,F] [EG]3!ff! [B,F] | [EG]3!ff! [B,F] [EG]4 | %117
!ff! [F,B,DF]4 [G,B,E]4 | [F,B,D]4 [F,^A,CE]4 | [F,B,D][F,B,D][F,B,D][F,B,D] [G,B,D]4 | %120
 [G,B,CE]4 [E,F,^A,]4 | [D,F,]2 z2 z4 | z!f! .[B,F].[B,F].[B,F] [EG]2!f! [B,F] z | %123
 z!f! .[B,F].[B,F].[B,F] [EG]2!f! [B,F] z | [F,B,DF]4 [F,B,DF]4 | [F,B,DF]2 z2 z2!ff! !>![B,F]2 | %126
 !>![B,D]2 !>!B,2 !>![F,F]2 !>![D,D]2 | B,2 z2 z4 | z8 | z8 | z8 | %131
!pp! [F,B,=D] z [F,B,D] z z2 z [F,B,D] | [F,B,=D] z [F,B,D] z z/[K:treble] F/=D/F/ B/F/D/F/ | %133
 B/=G/F/E/ =D/G/F/E/ D/C/B,/C/ D/C/B,/C/ |[K:bass] .=D.D.D.C .D.D.D.C | .=D.D.D.C .D.C.B,.A, | %136
 .G,.F,.^E,.=D, .C,.B,,.A,,.G,, | .F,, z z2 z4 | z8 | z8 | z8 | [F,A,] z [F,A,] z z2 z [F,A,C] | %142
 [F,A,C] z [F,A,C] z z2 z [A,C] | [A,C]/F/E/=D/ C/F/E/D/ C/B,/A,/B,/ C/B,/A,/B,/ | [F,A,=C]8- | %145
 [F,A,C] z z2 z .[A,=CF]/.[A,CF]/ .^D.[A,CF] | .D.[A,=CF].D.[A,CF] .D.[A,CF].D.[A,CF] | %147
 [=G,B,E] z [G,B,E] z [G,B,E] z z2 | z .B,,/.B,,/ .E,.B,, .E, z z2 |!>(! F,8!>)! |!pp! F,8- | %151
 F,2 z2 z!pp! .B,/.B,/ .=D.B, | .=D.F,/.F,/ .=D,.F, .D, z z2 |!ff!!>(! [B,,B,]8!>)! | %154
!p! [B,,B,]8- | [B,,B,] z z2 [E,F,=C]/^D/[E,F,C]/D/ [E,F,C]/D/[E,F,C]/D/ | %156
 [E,B,=D] z z2 ^C/E/C/E/ C/E/C/E/ |!ff!!>(! [G,G]8!>)! |!p! [G,G]8 | %159
!pp! !//-![E,A,C]2 E2 !//-![E,A,C]2 E2 | !//-![F,A,]2 =D2 !//-![F,A,]2 D2 | %161
 !//-![F,A,]2 =D2 !//-![F,A,]2 D2 | !//-![F,A,]2 =D2 !//-!F,2 A,2 |!p! F, z z2 z4 | %164
!pp! C,/F,/E,/=D,/ C,/F,/E,/D,/ C,/F,/E,/D,/ C,/=G,/E,/C,/ | =D, z!p! .[F,A,]2 .[F,A,]2 .[F,A,]2 | %166
 C,/F,/E,/=D,/ C,/F,/E,/D,/ C,/=G,/E,/G,/ C,/G,/E,/G,/ | %167
 =D,/=G,/F,/E,/ D,/G,/F,/E,/ D,/F,/D,/F,/ D,/F,/D,/F,/ | %168
 =D,/=G,/F,/E,/ D,/G,/F,/E,/ D,/G,/F,/E,/ D,/G,/F,/E,/ | z4 z2[K:treble]!p! .B z | %170
 .A z .^G z .F z .E z | .=D z .C z .B, z .A, z |[K:bass] G, z F, z E, z [E,=G,A,C] z | %173
[K:treble] z4 z2 .^c z | .B z .A z .=G z .F z | .E z[K:bass] =D6 | =D6 [B,E] z | %177
 .[^A,C] z z2 z2 .E z | .=D z .C z .B, z .=A, z | =G, z F,6- | F,8 | %181
 ^B,,/G,,/B,,/G,,/ B,,/G,,/B,,/G,,/ B,,/G,,/B,,/G,,/ C,/G,,/C,/G,,/ | %182
 ^D,/G,,/D,/G,,/ E,/G,,/E,/G,,/ F,/G,,/F,/G,,/ ^^F,/G,,/F,/G,,/ | %183
 G, z[K:treble] [^B,A]2 [CG]2 [DFA]2 | E/G/E/G/ [=D^E]/G/[DE]/G/ C/F/C/F/ C/=E/C/E/ | %185
 [^B,D] z z2 z4 | z8 |[K:bass]!p!!<(! [B,=D^E]8!<)! | [F,A,^D]8 |!p! [E,G,CE]8- | [E,G,CE]2 z2 z4 | %191
 A,2 z2 z4 | [F,G,]2 z2 z4 | E,2 z2 z4 |!pp! G,2 z2 z4 | A,2 !fermata!z2 z4 | [F,G,]2 z2 z4 | %197
 [E,G,]2 z2 [E,G,]2 z2 |!>(! [E,G,]2 [E,G,]2 [E,G,]2 [E,G,]2!>)! |!ppp! [E,G,]2 z2 !fermata!z4 | %200
 !fermata!z8 |!pp! !fermata![A,E]8 | !fermata![G,B,E]8- | [G,B,E]4 z4 |!ppp! [G,B,E]8 | z8 | %206
 .E z z2 z4 | z8 | z8 | z8 |!mf! !>!=G,,8 | !>!B,,8 | z8 | z8 |[K:treble]!p! .B.F.B.F .B.F.B.F | %215
 .A.E.A.E .A.E.A.=D | .=G.=D.G.D .G.D.G.G | .A z .^A z .B=A/B/ =G/B/F/B/ | E z z2 z4 | z8 | z8 | %221
[K:bass]!pp! [E,=G,=CE]8- | [E,G,CE][K:treble]!pp! =ccc cccc | %223
 =c/=G/E/G/ =F/^G/F/G/ F/G/F/G/ F/G/F/G/ | =F/^G/F/G/ F/G/F/G/ E/A/E/A/ E/^A/E/A/ | %225
 [=DF] z z2 z!pp! E[DFA]E | [DFA] z z2 z E[DFA]E | [DFA] z z2 B,/E/D/C/ B,/E/D/C/ | %228
 B,/E/D/C/ B,/E/D/C/ B,/E/D/C/[I:staff +1] B,/A,/G,/F,/ | %229
[I:staff -1] z E/F/ E/F/E/F/ E/F/E/F/ E/F/E/F/ | E/F/E/F/ G/E/F/G/ A/G/F/E/ F/E/F/E/ | %231
 F/E/F/E/ F/E/F/E/ F/E/F/E/ F/E/F/G/ | E/F/G/A/ G/E/F/G/ A/G/F/E/ F/A/G/F/ | %233
 E z[K:bass]!p! G,2 A,2 B,2 | A,4 B,2 D,2 | G,2 G,2 A,2 B,2 | A,2 =C2 B,2 D,2 | %237
 G,2[K:treble] [B,E]2 [EG]2 [E=G]2 | [B,DF]4 [B,=D^E]4 | F2 ^D2 E4 | B,8 | %241
!p! z2!<(! [CE]2 [=C^D]2 [B,=D]2 | [A,^C]2!<)! A4 A2 |!p! [EG]2!<(! [^CE]2 [=C^D]2 [B,=D]2 | %244
 [A,^C]2!<)! A4 A2 |!p!"_cresc." [EG]2 [B,EG]2 [B,DA]4 | [B,EG] z [B,EG]2 [A,B,FA]4 | %247
!f! .[G,B,EG].B,/.B,/ .[G,E].B, .[G,E].B,.[G,E].B, | [G,E] z z2!p! ^E4 | F4 =E4 | D2 F4 D2 | %251
[K:bass]!f! .E.E/.E/ .[G,B,].E .[G,B,].E.[G,B,].E | [E,E]8 | %253
!p! z"_cresc." [E,E][E,E][E,E] [E,E][E,E][E,E][E,E] | z [E,E][E,E][E,E] [E,E][E,E][E,E][E,E] | %255
!mf! z [E,E][E,E][E,E] [E,E][E,E][E,E][E,E] |"_cresc." z B,^A,B, =D[B,D][B,D][B,D] | %257
 [E,A,C]>[E,A,CE]!f! [E,A,CE]7/2 [E,A,CE]/ [E,A,CE]2 | %258
"_cresc." z3/2 [E,=G,CE]/ [E,G,CE]7/2 [E,G,CE]/ [E,G,CE]2 | %259
 z3/2 [E,=G,^A,E]/ [E,G,A,E]7/2 [E,G,A,E]/ [E,G,A,E]2 | %260
!f! [D,F,=A,]/B,/[D,F,=A,]/B,/ [D,F,=A,]/B,/[D,F,=A,]/B,/ [D,F,=A,]/B,/[D,F,=A,]/B,/ [D,F,=A,]/B,/[D,F,=A,]/B,/ | %261
!ff! !>![E,G,]2 !>!E,2 !>!E,2 !>!E,2 | !>!E,2 !>![E,B,]2 !>![E,B,]2 !>![E,B,]2 | %263
 !>![E,B,]2 !>![E,B,]2 !>![E,B,]2 !>![E,B,]2 | [A,=C]3 [E,B,] [A,C]3 [E,B,] | %265
 !>![E,B,]2 !>![E,B,]2 !>![E,B,]2 !>![E,B,]2 | [A,=C]3 [E,B,] [A,C]3 [G,B,]/F,/ | %267
 E,2 z A, G,F,G,E, | C2 C2 B,2 B,2 | E,2 z .A, .G,.F,.G,.E, | C2 C2 B,2 B,2 | %271
!ff! [C,E,^A,]2 [C,E,A,]4 [C,E,A,]2- | [C,E,A,]2 [C,E,^A,]4 [C,E,A,]2 | %273
 [D,F,=A,D]2 [F,A,D]4 [F,A,D]2- | [F,A,D]2 [F,A,D]3 z z2 | [E,E]8- | [E,E]2 !>!E2 !>!D2 !>![CE]2 | %277
 !>![B,D]2 !>![A,C]2 B,4- | B, z C z A, z B, z | E,E,/E,/ E,E,/E,/ E, z E2 | %280
 !>!=D2 !>![CE]2 !>![B,D]2 !>![A,C]2 | z!f! C/C/ CC/C/ CC/C/ CC/C/ | CC/C/ CC/C/ CC/C/ CC/C/ | %283
 CC/C/ CC/C/ CC/C/ CC/C/ | CC/C/ CC/C/ CC/C/ CC | C4 x4 | %286
 [D,F,B,D][D,F,B,D][E,B,E][E,B,E] [^E,B,^E][E,B,E][F,B,F][F,B,F] | %287
!ff! [E,G,]/B,/[E,G,]/B,/ [F,A,B,]/D/[F,A,B,]/D/ [G,B,]/E/[G,B,]/E/ [G,=D]/E/[G,D]/E/ | %288
 [A,C]/E/[F,A,]/E/ [=G,C]/E/[G,C]/E/ [F,B,]/^D/[F,B,]/D/ [^G,D]/F/[G,D]/F/ | %289
[K:treble] [G,C]/E/[G,C]/E/ [A,CF]/!ff!A/[A,CF]/A/ [A,CF]/A/[A,CF]/A/ [A,CF]/A/[A,CF]/A/ | %290
 [B,EG][B,EG][B,EG][B,EG] [B,DF][B,DF][B,DF][B,DF] | %291
 B,/E/B,/E/ [A,C]/!ff!F/[A,C]/F/ [B,C]/^E/[B,C]/E/ [A,C]/F/[A,C]/F/ | %292
 [G,B,EG][G,B,EG][G,B,EG][G,B,EG] [B,DF][B,DF][B,DF][B,DF] | %293
 [B,=D^E] z!ff![I:staff +1] ^E,/[I:staff -1]^E/[I:staff +1]E,/[I:staff -1]^E/[I:staff +1] F,/[I:staff -1]F/[I:staff +1]F,/[I:staff -1]F/[I:staff +1] G,/[I:staff -1]G/[I:staff +1]G,/[I:staff -1]G/ | %294
 A,/C/A,/C/ [B,C]/^E/[B,C]/E/ [A,C]/F/[A,C]/F/ [^A,C=E]/G/[A,CE]/G/ | %295
 [B,E]/^G/[B,E]/G/ [B,E]/G/[B,E]/G/ [^A,CE]/!ff!=G/[A,CE]/G/ [A,CE]/G/[A,CE]/G/ | %296
 [B,E]/^G/[B,E]/G/ .[B,DF].[B,E][K:bass] [F,A,C][F,A,C][F,A,B,][F,A,B,] | [E,G,B,]4 [E,G,CE]4 | %298
 [E,G,B,E]4 [D,F,]4 | .[E,G,].[E,G,B,].[E,G,B,].[E,G,B,] [E,G,CE]4 | %300
 [E,F,A,C]4 [A,F]/E/D/C/ B,/A,/G,/F,/ | .E,!f!.[E,G,B,].[E,G,B,].[E,G,B,] ([E,A,CE]3!f! [G,B,]) | %302
!f! [E,A,CE]3 [G,B,]!f! ([E,A,CE]4 | [G,B,]).[E,G,B,].[E,G,B,].[E,G,B,] ([E,A,CE]3!f! [G,B,]) | %304
 [E,A,CE]3!f! [G,B,] ([E,A,CE]4 | [G,B,]).[E,G,B,].[E,G,B,].[E,G,B,] ([E,A,CE]2!f! [G,B,]) z | %306
 z .[E,G,B,].[E,G,B,].[E,G,B,] ([E,A,CE]2!f! [G,B,]) z | [E,G,B,]2 z2 [E,G,B,]2 z2 | %308
 [E,G,B,]2 z2 z2 [E,G,B,E]2 | [E,G,B,]2 z2 z2 [B,,E,G,B,]2 | [B,,E,G,B,]2 z2 z2!ff! .B,2 | %311
 .G2 .[G,B,E]2 .[E,G,B,]2 .[E,G,B,]2 | .[E,G,B,]2 .[E,G,B,]2 .[E,G,B,]2 .[E,G,B,]2 | %313
 [E,G,B,]2 z2 [E,G,B,]2 z2 | [B,,E,]2 z2 z4 | z8 | z8 | z8 | %318
[K:treble]!pp! d/e/c/e/ d/e/c/e/ d/e/c/e/ d/=d/B/d/ | c/=d/B/d/ c/d/B/d/ c/d/B/d/ c/=c/A/c/ | %320
 B/=c/A/c/ B/c/A/c/ B/c/A/c/ .B.[=GB] | .[A=c].[Ac].[^A^c].[Ac] .B=A/B/ =G/B/F/B/ | E z z2 z4 | %323
 z8 | z8 | z4[K:bass]!pp! !fermata![=G,C]4 |!p! [=G,B,]8 | =C4 =B,4 | [A,=C^D]8 | [=G,B,E]4 B,4- | %330
"_dim." B,8- | B,8 | !fermata!B,8 |!pp! ^G,4 A,4 | G,4 [F,A,]4 | [G,B,]4!pp! [E,G,CE]4 | %336
 [E,G,B,E]4 [A,B,D]4 | [G,B,E]4!pp! [G,CE]4 | [G,B,E]4 [A,B,D]4 | E8 | E8 | [B,E]4 C4 | %342
"_dim." B,3 B, [A,CE]4 | [G,B,E]8 |!pp! [G,B,E]8- | [G,B,E]4 !fermata!z4 | !fermata!z8 | %347
 !fermata![A,E]8 | [E,G,B,E]8- | !fermata![E,G,B,E]8 |] %350
V:6
 z8 | z8 | z8 |!ped! [E,,E,]8- | [E,,E,]8!ped-up! | z8 | z8 | z8 | z8 | z8 | z8 | z8 | z8 | z8 | %14
[K:treble] .B.F.B.F .B.F.B.E | .A.E.A.E .A.E.A.=D | .=G.=D.G.D .G.D.G z | z8 | z8 | z8 | z8 | %21
 z4[K:bass]!pp!!ped! [B,,=G,]4- | [B,,-G,]4!ped-up! [B,,F,]2 z[K:treble] .F | .B.F.B.E .A.E.A.E | %24
 .A.E.A.=D .=G.D.G.D | .=G.=D.G z z4 | z8 | z8 | z8 | z8 |[K:bass]!ped! [=B,,=G,]8 | %31
 [B,,F,]!ped-up! z z2 z4 | z8 | [E,,E,]4 [C,,C,]4 | [G,,,G,,]4 [B,,,B,,]4 | E,,4 [C,,C,]4 | %36
 [G,,,G,,]4 [B,,,B,,]4 | .E,,.E,,.E,,.E,, A,,3 E,, | A,,3 E,, A,, z [A,,,A,,] z | %39
 .E,,.E,,.E,,.E,, A,,3 E,, | A,,3 E,, A,, z [A,,,A,,] z | %41
!ped! E,,E,,/E,,/ E,,E,,/E,,/ E,,E,,/E,,/ E,,E,,/E,,/!ped-up! | %42
!ped! E,,E,,/E,,/ E,,E,,/E,,/ E,,E,,/E,,/ E,,E,,/E,,/!ped-up! | %43
!ped! E,,E,,/E,,/ E,,E,,/E,,/!ped-up!!ped! E,,E,,/E,,/ E,,E,,/E,,/!ped-up! | %44
 E,, z G,,G,, F,,F,,[B,,,B,,][B,,,B,,] | E,,E,,/E,,/ E,,E,,/E,,/ E,,E,,/E,,/ E,,E,,/E,,/ | %46
 E,, z!ped! !>!E,2 !>!D,2 !>!C,2!ped-up! | !>!B,,2 C,C, B,,B,,A,,A,, | %48
 [G,,G,][G,,G,][=G,,=G,][G,,G,] [F,,F,][F,,F,][B,,,B,,][B,,,B,,] | %49
 [E,,E,][E,,E,][D,,D,][D,,D,] [C,,C,][C,,C,][B,,,B,,][B,,,B,,] | %50
 [^A,,,^A,,][A,,,A,,][=G,,,=G,,][G,,,G,,]!ped! !>![F,,,F,,]4!ped-up! | [B,,F,B,]8 | [B,,F,B,]8 | %53
 [B,,F,B,]8 | =A,,4 G,,4 | [C,,G,,]8 | [C,,G,,]8 | [C,,G,,]8 | %58
 [C,,C,]4!ped! [B,,,B,,]!ff![B,,,B,,][B,,,B,,][B,,,B,,]!ped-up! | %59
!ff!!ped! !//-!E,,2 E,2!ped-up!!ped! !//-!E,,2 E,2!ped-up! | %60
!ped! !//-!E,,2 E,2!ped-up!!ped! !//-!E,,2 E,2!ped-up! | %61
!ped! !//-!E,,2 E,2!ped-up!!ped! !//-!E,,2 E,2!ped-up! | %62
!ped! E,,/E,/E,,/E,/!ped-up!!ped! ^E,,/!>(!^E,/E,,/E,/!ped-up! E,,E,,E,,E,,!>)! | F,,2 z2 z4 | %64
 [F,,F,] z z2 z4 | !>![F,,F,] z z2 !>![F,,F,] z z2 | z2!p! !>!F,,2 !>!F,,2 !>!F,,2 | %67
 B,,2 ^A,2 G,2 F,2 | E,2 D,2 C,2 F,2 | z2 ^A,2 G,2 F,2 | E,2 D,2 C,2 F,2 |!p! [B,,,B,,]8 | %72
 [B,,,B,,]8 | [B,,,B,,]8 | [B,,,B,,]8 | [B,,,B,,]2!ped! D,,2 G,,2 ^E,,2!ped-up! | F,,4 [D,,D,]4 | %77
!ped! [C,,C,]4!ped-up!!ped! D,,2 G,,2!ped-up! | F,,8 | B,,8- | B,,2 =G,,2 C,2 ^A,,2 | B,,8- | %82
 B,,2 =G,,2 C,2 ^A,,2 | B,,2 F,,2 C,2 F,,2 | B,,2 F,,2 C,2 ^A,,2 | %85
 B,, z .[B,,,B,,] z .[B,,,B,,] z .[B,,,B,,] z | .[B,,,B,,] z z2 z4 | z4 E,, z z2 | z4 F,, z z2 | %89
 z2 [B,,,B,,] z [B,,,B,,] z [B,,,B,,] z | B,,8 | !>![^E,,,^E,,]8 | !>![F,,,F,,]8 | [G,,,G,,]8 | %94
 [=A,,,=A,,]4 [D,,D,]4 | [E,,E,]7/2 [E,,E,]/ [E,,E,]7/2 [E,,E,]/ | %96
 [^E,,^E,]7/2 [E,,E,]/ [E,,E,]7/2 [E,,E,]/ | G,,7/2 G,,/ G,,7/2 G,,/ | %98
!ped! !/!^A,,4 !/!A,,4!ped-up! | B,, z !>![B,,,B,,]2 !>![B,,,B,,]2 !>![B,,,B,,]2 | %100
 !>![B,,,B,,]2 !>![B,,,B,,]2 !>![B,,,B,,]2 !>![B,,,B,,]2 | %101
 !>![B,,,B,,]2 !>![B,,,B,,]2 !>![B,,,B,,]2 !>![B,,,B,,]2 | [E,,E,]3 [D,,D,] [E,,E,]3 D,,/C,,/ | %103
 !>![B,,,B,,]2 !>![B,,,B,,]2 !>![B,,,B,,]2 !>![B,,,B,,]2 | [E,,E,]3 [D,,D,] [E,,E,]3 D,,/C,,/ | %105
 [B,,,B,,] z z .E, .D,.C,.D,.B,, | [G,,G,]2 [G,,G,]2 [F,,F,]2 [F,,F,]2 | %107
 [B,,,B,,]2 z .E, .D,.C,.D,.B,, | [G,,G,]2 [G,,G,]2 [F,,F,]2 [F,,F,]2 | %109
 [C,,C,] z!ped! C,,/C,/C,,/C,/ C,,!ped-up! z!ped! C,,/C,/C,,/C,/ | %110
 [C,,C,]!ped-up! z!ped! C,,/C,/C,,/C,/ C,,!ped-up! z!ped! C,,/C,/C,,/C,/!ped-up! | %111
 !>!F,, z!ped! !>!F,,,/!>!F,,/!>!F,,,/!>!F,,/ !>!F,,,!ped-up! z!ped! !>!F,,,/!>!F,,/!>!F,,,/!>!F,,/ | %112
 !>!F,,,!ped-up! z!ped! !>!F,,,/!>!F,,/!>!F,,,/!>!F,,/ !>!F,,,/!>!F,,/!>!F,,,/!>!F,,/!ped! !>!F,,,/!ped-up!!>!F,,/!>!F,,,/!>!F,,/ | %113
 B,,, z z2 z4 | z8 | z8 | z8 | [B,,,B,,]4 G,,4 | [D,,D,]4 F,,4 | [B,,,B,,]4 [G,,,G,,]4 | %120
 [E,,,E,,]4 !>![F,,,F,,]4 | [B,,,B,,]2 z2 z4 | [B,,,B,,] z z2 z4 | %123
 [B,,,B,,].B,,.B,,.B,, E,2 B,, z | [B,,,B,,]4 [B,,,B,,]4 | [B,,,B,,]2 z2 z2!ped! !>!F,2!ped-up! | %126
 !>!D,2 !>!B,,2 !>![F,,B,,]2 !>![D,,B,,]2 | [B,,,B,,]2 z2 z4 | z8 | z8 | z8 | %131
 [B,,=D,] z [B,,D,] z B,,, z z [B,,D,] | [B,,=D,] z [B,,D,] z B,,, z z [B,,D,F,B,] | %133
 [B,,=D,F,B,] z [B,,D,F,B,] z B,,, z z B,, | [^E,,B,,]8 | [^E,,B,,]8- | [E,,B,,]4 z4 | z8 | z8 | %139
 z8 |!p! C,,8 | [F,,,F,,] z F,, z z2 z F,, | F,, z F,, z z2 z F,, | [F,,F,] z [F,,F,] z z2 z F,, | %144
!pp! B,, z B,, z z2 z B,, | B,, z B,, z z2 z B,, | %146
 [B,,,B,,] z!p!!ped! [F,,,F,,]2 [F,,,F,,]2 [F,,,F,,]2!ped-up! | %147
 z .B,,,/.B,,,/ .E,,.B,,, .E,,.B,,,.E,,.B,,, | E,, z z2 z4 |!p! [^A,,,^A,,]8 | %150
!ped! !//-!^A,,,2 ^A,,2 !//-!A,,,2 A,,2!ped-up! | z8 | z8 |!p! [=G,,,=G,,]8 | %154
!ped! !//-!=G,,,2 =G,,2 !//-!G,,,2 G,,2!ped-up! | ^G,,,4!ped! A,,,4!ped-up! | %156
 B,,,4!ped! C,,4!ped-up! |!ped! [^B,,,^B,,]B,,B,,B,,!ped-up!!ped! C,C,C,C,!ped-up! | %158
!ped! ^D,D,D,D,!ped-up!!ped! E,E,E,E,!ped-up! |!ped! [A,,,A,,]8!ped-up! | %160
!ped! !//-!=D,,2 =D,2!ped-up!!ped! !//-!D,,2 D,2!ped-up! | %161
!ped! !//-!=D,,2 =D,2!ped-up!!ped! !//-!D,,2 D,2!ped-up! | %162
!ped! !//-!=D,,2 =D,2!ped-up!!ped! !//-!D,,2 D,2!ped-up! | =D,, z z2 z4 | %164
!p! C,,/F,,/E,,/=D,,/ C,,/F,,/E,,/D,,/ C,,/F,,/E,,/D,,/ C,,/=G,,/E,,/C,,/ | =D,, z z2 z4 | %166
!p! C,,/F,,/E,,/=D,,/ C,,/F,,/E,,/D,,/ C,,/=G,,/E,,/G,,/ C,,/G,,/E,,/G,,/ | %167
 =D,,/=G,,/F,,/E,,/ D,,/G,,/F,,/E,,/ D,,/F,,/D,,/F,,/ D,,/F,,/D,,/F,,/ | %168
 =D,,/=G,,/F,,/E,,/ D,,/G,,/F,,/E,,/ D,,/G,,/F,,/E,,/ D,,/G,,/F,,/E,,/ | %169
!ped! C,,/C,/C,,/C,/ C,,/C,/C,,/C,/ C,, z z2!ped-up! | z8 | z8 | z4 z2 [A,,,A,,] z | %173
 [=D,,=D,] z z2 z4 | z8 | z8 | z4 z2 =G,, z | z4 z2 E, z | =D, z C, z B,, z =A,, z | =G,, z F,,6 | %180
 F,,8- |!ped! F,,4!ped-up! x4!ped! | %182
!ped! G,,,G,,,!ped-up!!ped!G,,,G,,,!ped-up!!ped! G,,,G,,,!ped-up!!ped!G,,,G,,,!ped-up! | %183
!ped! !//-!G,,,2 G,,2 !//-!G,,,2 G,,2!ped-up! | %184
!ped! G,,,/G,,/G,,,/G,,/ G,,,/G,,/G,,,/G,,/ G,,,/G,,/G,,,/G,,/ G,,,/G,,/G,,,/G,,/!ped-up! | %185
!ped! !//-!G,,,2 G,,2!ped-up!!ped! !//-!F,,2 G,,2!ped-up! | %186
!ped! !//-!E,,2 G,,2!ped-up!!ped! !//-!D,,2 G,,2!ped-up! | %187
!ped! !//-!C,,2 C,2!ped-up!!mp!!ped! !//-!C,,2 C,2!ped-up! | %188
!ped! !//-!^B,,,2 ^B,,2 !//-!B,,,2 B,,2!ped-up! | %189
!ped!!>(! !//-!C,,2 C,2!p! !//-!C,,2 C,2!ped-up!!>)! |!p! C,8- | C,8 | ^B,,8 | C,8 | C,8- | C,8 | %196
 ^B,,8 | C,8 |!ped! C,8- | C,2!ped-up! z2 !fermata!z4 | !fermata!z8 | !fermata!z8 | %202
 !fermata![E,,E,]8- | [E,,E,]4 z4 | [E,,E,]8 | z8 | z8 | z8 | z8 | z8 | z8 | z8 | !>!E,,8 | %213
 B,,,6!ped! z!p! (3B,,/B,,,/B,,/!ped-up! | %214
 B,,, z z!ped! (3B,,/B,,,/B,,/!ped-up! B,,, z z!ped! (3B,,/B,,,/B,,/!ped-up! | %215
 !>!B,,, z !>!B,,, z !>!B,,, z z!ped! (3B,,/B,,,/B,,/!ped-up! | %216
 B,,, z z!ped! (3B,,/B,,,/B,,/!ped-up! B,,, z z!ped! (3B,,/B,,,/B,,/!ped-up! | %217
 !>!B,,, z !>!B,,, z !>!B,,, z z2 | !>!=G,,8- | G,,8 | =G,,8- | %221
 =C,,/=C,/C,,/C,/ C,,/C,/C,,/C,/ C,,/C,/C,,/C,/ C,,/C,/C,,/C,/ | [=C,,=G,,] z z2 z =CCC | %223
 =CC[C=D][CD] [CD][CD][CD][CD] | [=C=D][CD][CD][CD] CCCC | B, z z2 z4 | [B,,B,] z z2 z4 | %227
 [B,,,B,,] z z2 z4 | z2 .[B,,F,]2 .[B,,F,]2 .[B,,F,]2 | E, z D2 C2 B,2 | A,2 G,2 F,2 B,2 | %231
 z2 D2 C2 [B,D]2 | [A,C]2 [G,B,]2 [F,A,C]2 B,2 | [E,,E,]8!ped!!ped-up! |!ped! [E,,E,]8!ped-up! | %235
 E,,8!ped!!ped-up! |!ped! E,,8!ped-up! | E,,2 G,,2 C,2 ^A,,2 | B,,4 [G,,G,]4 | %239
 [F,,F,]4 [G,,G,]2 C,2 | B,,8 | E,8- | E,2 x2 x4 | E,8- | E,2 x2 x4 | E,2 B,,2 F,2 B,,2 | %246
 E,2 B,,2 [F,,F,]2 [D,,D,]2 | .[E,,E,].B,,/.B,,/ .[E,,E,].B,, .[E,,E,].B,,.[E,,E,].B,, | %248
 [E,,E,] z z2 B,4 | A,8 | B,4 B,,4 | E, z [E,,E,] z [E,,E,] z [E,,E,] z | %252
 E,, z!p! [=D,,=D,]2 [C,,C,]2 [B,,,B,,]2 |!ped! [^A,,,^A,,]8!ped-up! | %254
!ped! [B,,,B,,]4!ped-up!!ped! [=D,,=D,]4!ped-up! |!ped! [C,,C,]8!ped-up! | [=D,,=D,]4 [G,,,G,,]4 | %257
"^più" [A,,,A,,]7/2 A,,/ A,,7/2 A,,/ | ^A,,7/2 A,,/ A,,7/2 A,,/ | C,7/2 C,/ C,7/2 C,/ | %260
!ped! z2!ped-up!!ped! !>![B,,,B,,]2!ped-up!!ped! !>![B,,,B,,]2!ped-up!!ped! !>![B,,,B,,]2!ped-up! | %261
 !>!E,,2 !>!E,,2 !>!E,,2 !>!E,,2 | !>!E,,2 !>!E,,2 !>!E,,2 !>!E,,2 | %263
 !>!E,,2 !>!E,,2 !>!E,,2 !>!E,,2 | A,,3 E,, A,,3 E,, | !>!E,,2 !>!E,,2 !>!E,,2 !>!E,,2 | %266
 A,,3 E,, A,,3 G,,/F,,/ | E,,2 z A,, G,,F,,G,,E,, | C,2 C,2 B,,2 B,,2 | %269
 E,,2 z .A,, .G,,.F,,.G,,.E,, | C,2 C,2 B,,2 B,,2 | %271
 !>!F,, z!ped! !>!F,,,/!>!F,,/!>!F,,,/!>!F,,/ !>!F,,,!ped-up! z!ped! !>!F,,,/!>!F,,/!>!F,,,/!>!F,,/ | %272
 !>!F,,,!ped-up! z!ped! !>!F,,,/!>!F,,/!>!F,,,/!>!F,,/ !>!F,,,!ped-up! z!ped! !>!F,,,/!>!F,,/!>!F,,,/!>!F,,/!ped-up! | %273
!ped! B,,, z!ped-up!!ped! B,,,/B,,/B,,,/B,,/ B,,,!ped-up! z!ped! B,,,/B,,/B,,,/B,,/ | %274
 B,,,!ped-up! z!ped! B,,,/B,,/B,,,/B,,/ B,,,!ped-up! z z2 | %275
!ped! !>!E,,!>!E,,/!>!E,,/ !>!E,,!>!E,,/!>!E,,/ !>!E,,!>!E,,/!>!E,,/ !>!E,,!>!E,,/!>!E,,/ | %276
 !>!E,,!>!E,,/!>!E,,/!ped-up!!ped! !>!E,,!>!E,,/!>!E,,/ !>!E,,!>!E,,/!>!E,,/ !>!E,,!>!E,,/!>!E,,/!ped-up! | %277
 !>!E,,!>!E,,/!>!E,,/!ped! !>!E,,!>!E,,/!>!E,,/ !>!E,,!>!E,,/!>!E,,/ !>!E,,!>!E,,/!>!E,,/!ped-up! | %278
 E,, z C, z A,, z B,, z | %279
 !>!E,,!>!E,,/!>!E,,/!ped! !>!E,,!>!E,,/!>!E,,/ !>!E,,!>!E,,/!>!E,,/ !>!E,,!>!E,,/!>!E,,/!ped-up! | %280
 !>!E,,!>!E,,/!>!E,,/!ped! !>!E,,!>!E,,/!>!E,,/ !>!E,,!>!E,,/!>!E,,/ !>!E,,!>!E,,/!>!E,,/!ped-up! | %281
 [C,,C,] z .C,2 .[B,,B,]2 .[A,,A,]2 | .[G,,G,]2 .[F,,F,]2 .[^E,,^E,]2 .[D,,D,]2 | %283
 .[C,,C,]2 .[C,,C,]2 .[B,,,B,,]2 .[A,,,A,,]2 | %284
 .[G,,,G,,]2 .[F,,,F,,]2 .[^E,,,^E,,]2!ped! E,,,/E,,/E,,,/E,,/!ped-up! | %285
!ped! !>!F,,,/!>!F,,/!>!F,,,/!>!F,,/!ped-up!!ped! G,,,/G,,/G,,,/G,,/!ped-up!!ped! A,,,/A,,/A,,,/A,,/!ped-up!!ped! ^A,,,/^A,,/A,,,/A,,/!ped-up! | %286
!ped! B,,,/B,,/B,,,/B,,/!ped-up!!ped! C,,/C,/C,,/C,/!ped-up!!ped! =D,,/=D,/D,,/D,/!ped-up!!ped! ^D,,/^D,/D,,/D,/!ped-up! | %287
!ped! E,,E,,!ped-up!!ped!!>!F,,!>!F,,!ped-up!!ped! G,,G,,!ped-up!!ped!E,,E,,!ped-up! | %288
!ped! A,,A,,!ped-up!!ped!^A,,^A,,,!ped-up!!ped! B,,,B,,!ped-up!!ped!^B,,G,,!ped-up! | %289
!ped! C, z!ped-up!!ped! !>![F,,,F,,]2 [A,,,A,,]2 !>![F,,,F,,]2!ped-up! | %290
!ped! B,,,/B,,/B,,,/B,,/!ped-up!!ped! B,,,/B,,/B,,,/B,,/!ped-up!!ped! A,,,/A,,/A,,,/A,,/!ped-up!!ped! A,,,/A,,/A,,,/A,,/!ped-up! | %291
 .[G,,,G,,]2 .[F,,,F,,]2 .[G,,,G,,]2 .[A,,,A,,]2 | %292
!ped! B,,,/B,,/B,,,/B,,/!ped-up!!ped! B,,,/B,,/B,,,/B,,/!ped-up!!ped! A,,,/A,,/A,,,/A,,/!ped-up!!ped! A,,,/A,,/A,,,/A,,/!ped-up! | %293
!ped! G,,,/G,,/G,,,/G,,/!ped-up!!ped! [C,,C,]2!ped-up!!ped! [^D,,^D,]2!ped-up!!ped! [^E,,^E,]2!ped-up! | %294
!ped! [F,,F,]2!ped-up!!ped! [G,,G,]2!ped-up!!ped! A,,2!ped-up!!ped! ^A,,2!ped-up! | %295
!ped! B,,2!ped-up!!ped! B,,2!ped-up!!ped! B,,,/B,,/B,,,/B,,/ B,,,/B,,/B,,,/B,,/!ped-up! | %296
!ped! B,,,/B,,/B,,,/B,,/!ped-up! .[A,,,A,,].[G,,,G,,]!ped! !>!F,,,/!>!F,,/!>!F,,,/!>!F,,/!ped-up!!ped! B,,,/B,,/B,,,/B,,/!ped-up! | %297
 E,,4 [C,,C,]4 | [G,,,G,,]4 [B,,,B,,]4 | E,,4 [C,,C,]4 | [A,,,A,,]4 [B,,,B,,]4 | %301
 .E,,.E,,.E,,.E,, ([A,,,A,,]3 E,,) | [A,,,A,,]3 E,,!ped! ([A,,,A,,]4 | %303
 E,,)!ped-up!.E,,.E,,.E,, ([A,,,A,,]3 E,,) | [A,,,A,,]3 E,,!ped! ([A,,,A,,]4 | %305
 E,,)!ped-up!.E,,.E,,.E,, ([A,,,A,,]2 E,,) z | z .E,,.E,,.E,, ([A,,,A,,]2 E,,) z | %307
 E,,2 z2 E,,2 z2 | E,,2 z2 z2 E,,2 | [E,,,E,,]2 z2 z2 E,,2 | [E,,,E,,]2 z2 z2 .B,,2 | %311
 .G,2 .E,2 .B,,2 .G,,2 | .E,,2 .E,,2 .[B,,,B,,]2 .[G,,,G,,]2 | %313
!ped! !///-!E,,,2 E,,2 !///-!E,,,2 E,,2!ped-up! | E,,,2 z2 z4 | z8 | z8 | z8 | %318
[K:treble] .B.F.B.F .B.F.B.E | .A.E.A.E .A.E.A.=D | .=G.=D.G.D .G.D.G z | z8 | z8 | z8 | z8 | %325
 z4[K:bass] !fermata!B,,4 | B,,8- | B,,8 | B,,8- |!ped! B,,8!ped-up! | B,,8- | B,,8 | %332
 !fermata!B,,8 | C,4 A,,4 | B,,8 | [E,,E,] z z2 [E,,E,] z z2 | [G,,,G,,] z z2 [B,,,B,,] z z2 | %337
 [E,,E,] z z2 [C,,C,] z z2 | [G,,,G,,] z z2 [B,,,B,,] z z2 | [E,,E,] z z2 z4 | E,, z z2 z4 | %341
 [E,,E,]8 | [E,,E,]8 | [E,,E,]8 | [E,,E,]8- | [E,,E,]4 !fermata!z4 | !fermata!z8 | !fermata!z8 | %348
!ped! !///-!E,,,2 E,,2 !///-!E,,,2 E,,2 | !///-!!fermata!E,,,3 E,,3 E,,,2!ped-up! |] %350
V:7
 x8 | x8 | x8 | x8 | x8 | x8 | x8 | x8 | x8 | x8 | x8 | x8 | x8 | x8 |[K:treble] x8 | x8 | x8 | %17
 x8 | x8 | x8 | x8 | x8 | x8 | x8 | x8 | x8 | x8 | x8 | x8 | x8 | x8 | x8 | x8 | x4[K:bass] x4 | %34
 x8 | x8 | x8 | x8 | x8 | x8 | x8 | x8 | x8 | x4 !>![G,B,]2 [F,A,]2 | [E,G,] x x2 x4 | x8 | %46
 z E,/E,/ !>!CE,/E,/ !>!B,E,/E,/ A,E,/E,/ | G,G,/E,/ A,A,/E,/ [G,B,][G,B,]/E,/ DD/B,/ | x8 | x8 | %50
 x6[K:treble] x2 | x8 | x8 | x8 | x8 | G,8 | G,8 | G,8 | x8 | x8 | x8 |[K:bass] x8 | x8 | x8 | x8 | %65
 x8 | x8 | x8 | x8 | x8 | x8 | x2[K:treble] x6 | E4 E2 ^A,2 | x8 | E6 x2 | x2[K:bass] x6 | %76
 [F,^A,]4 =A,4 | G,2 E,2 F,2 G,2 | x8 | x8 | E,2 =G,2!>(! C2 [^A,CE]2!>)! | x8 | %82
 [E,G,]2 =G,2!>(! C2 [^A,CE]2!>)! | x8 | x4 F,4 | x8 | x8 | x8 | F,8 | x8 | D, z z2!p! C,2 D,2 | %91
 x8 | x8 | x8 | x8 | x8 | x8 | x8 | x8 | x8 | x8 | x8 | x8 | x8 | x8 | x8 | x8 | x8 | x8 | x8 | %110
 x8 | x8 | x8 | x8 | x8 | x8 | x8 | x8 | x8 | x8 | x8 | x8 | x8 | x8 | x8 | x8 | x8 | x8 | x8 | %129
 x8 | x8 | x8 | x9/2[K:treble] x7/2 | x8 |[K:bass] x8 | x8 | x8 | x8 | x8 | x8 | x8 | x8 | x8 | %143
 x8 | x8 | x8 | x8 | x8 | x8 | x8 | x8 | x8 | x8 | x8 | x8 | x8 | x8 | x8 | x8 | x8 | x8 | x8 | %162
 x8 | x8 | x8 | x8 | x8 | x8 | x8 | x6[K:treble] x2 | x8 | x8 |[K:bass] x8 |[K:treble] =D8- | D8- | %175
 D x[K:bass] .=D z .^C z .B, z | .A, z .=G, z .F, z .G, x | F,8- | F,8- | %179
 .F, x .F, z .E, z .=D, z | .C, z .B,, z .^A,, z .=A,, z | x8 | x8 | x2[K:treble] x6 | x8 | x8 | %186
 x8 |[K:bass] x8 | x8 | x8 | x8 | x8 | x8 | x8 | x8 | x8 | x8 | x8 | x8 | x8 | x8 | x8 | x8 | x8 | %204
 x8 | x8 | x8 | x8 | x8 | x8 | x8 | x8 | x8 | x8 |[K:treble] x8 | x8 | x8 | x8 | x8 | x8 | x8 | %221
[K:bass] x8 | x[K:treble] x7 | x8 | x8 | x8 | x8 | x8 | x8 | x8 | x8 | x8 | x8 | %233
 x2[K:bass] G,2 F,2 G,2 | A,4 A,4 | E,2 E,2 F,2 G,2 | A,8 | E,2[K:treble] x6 | z8 | C2 A,2 B,2 C2 | %240
 x8 | x8 | x2 [=C^D]2!>(! F2 [DF]2!>)! | x8 | x2 [=C^D]2!>(! F2 [DF]2!>)! | x8 | x8 | x8 | x8 | %249
 x8 | x8 |[K:bass] x8 | x8 | x8 | x8 | x8 | x E,E,E, E,E,E,E, | x8 | x8 | x8 | x8 | x8 | x8 | x8 | %264
 x8 | x8 | x8 | x8 | x8 | x8 | x8 | x8 | x8 | x8 | x8 | x8 | x8 | x4 !>![G,B,]2 !>![F,A,]2 | %278
 [E,G,] x x2 x4 | x8 | x8 | x8 | x8 | x8 | x8 | [F,A,]2 [G,B,]2 [A,C]2 [E,=G,C][E,G,C] | x8 | x8 | %288
 x8 |[K:treble] x8 | x8 | x8 | x8 | x8 | x8 | x8 | x4[K:bass] x4 | x8 | x8 | x8 | x8 | x8 | x8 | %303
 x8 | x8 | x8 | x8 | x8 | x8 | x8 | x8 | x8 | x8 | x8 | x8 | x8 | x8 | x8 |[K:treble] x8 | x8 | %320
 x8 | x8 | x8 | x8 | x8 | x4[K:bass] x4 | x8 | x8 | x8 | x8 | x8 | x8 | x8 | x8 | x8 | x8 | x8 | %337
 x8 | x8 | [G,B,]4 [A,C]4 | [E,B,]4 [A,C]4 | x8 | x8 | x8 | x8 | x8 | x8 | x8 | x8 | x8 |] %350
V:8
 x8 | x8 | x8 | x8 | x8 | x8 | x8 | x8 | x8 | x8 | x8 | x8 | x8 | x8 |[K:treble] x8 | x8 | x8 | %17
 x8 | x8 | x8 | x8 | x4[K:bass] x4 | x7[K:treble] x | x8 | x8 | x8 | x8 | x8 | x8 | x8 | %30
[K:bass] x8 | x8 | x8 | x8 | x8 | x8 | x8 | x8 | x8 | x8 | x8 | x8 | x8 | x8 | x8 | x8 | x8 | x8 | %48
 x8 | x8 | x8 | x8 | x8 | x8 | x8 | x8 | x8 | x8 | x8 | x8 | x8 | x8 | x8 | x8 | x8 | x8 | x8 | %67
 x8 | x8 | x8 | x8 | x8 | x8 | x8 | x8 | x8 | x8 | x8 | x8 | B,,,4 C,,2 D,,2 | E,,2 x2 x4 | %81
 B,,2 B,,,2 C,,2 D,,2 | E,,2 x2 x4 | x8 | x8 | x8 | x8 | x8 | x8 | x8 | B,,, z z2 z4 | x8 | x8 | %93
 x8 | x8 | x8 | x8 | x8 | x8 | x8 | x8 | x8 | x8 | x8 | x8 | x8 | x8 | x8 | x8 | x8 | x8 | x8 | %112
 x8 | x8 | x8 | x8 | x8 | x8 | x8 | x8 | x8 | x8 | x8 | x8 | x8 | x8 | x8 | x8 | x8 | x8 | x8 | %131
 x8 | x8 | x8 | x8 | x8 | x8 | x8 | x8 | x8 | x8 | x8 | x8 | x8 | B,,,8- | B,,,8 | x8 | G,,,8 | %148
 G,,,8 | x8 | x8 | x8 | x8 | x8 | x8 | x8 | x8 | x8 | x8 | x8 | x8 | x8 | x8 | x8 | x8 | x8 | x8 | %167
 x8 | x8 | x8 | x8 | x8 | x8 | x8 | x8 | x8 | x8 | F,,8 | F,,8 | F,, x F,, z E,, z =D,, z | %180
 C,, z B,,, z ^A,,, z =A,,, z | G,,,G,,,G,,,G,,, G,,,G,,,G,,,G,,, | x8 | x8 | x8 | x8 | x8 | x8 | %188
 x8 | x8 | E,,2 z2 z4 | F,,2 z2 z4 | G,,2 z2 z4 | A,,2 z2 z4 | E,,2 z2 z4 | F,,2 !fermata!z2 z4 | %196
 G,,2 z2 z4 | C,,2 z2 C,,2 z2 | C,,2 C,,2 C,,2 C,,2 | C,,2 x2 x4 | x8 | x8 | x8 | x8 | x8 | x8 | %206
 x8 | x8 | x8 | x8 | x8 | x8 | x8 | x8 | x8 | x8 | x8 | x8 | x8 | x8 | x8 | G,,8 | x8 | x8 | x8 | %225
 x8 | x8 | x8 | x8 | x8 | x8 | x8 | x8 | x8 | x8 | x8 | x8 | x8 | x8 | x8 | x8 | E,,4 F,,2 G,,2 | %242
 A,,2 =C,2 F,2 D,2 | E,2 E,,2 F,,2 G,,2 | A,,2 C,2 F,2 D,2 | x8 | x8 | x8 | x8 | x8 | x8 | x8 | %252
 x8 | x8 | x8 | x8 | x8 | x8 | x8 | x8 | x8 | x8 | x8 | x8 | x8 | x8 | x8 | x8 | x8 | x8 | x8 | %271
 x8 | x8 | x8 | x8 | x8 | x8 | x8 | x8 | x8 | x8 | x8 | x8 | x8 | x8 | x8 | x8 | x8 | x8 | x8 | %290
 x8 | x8 | x8 | x8 | x8 | x8 | x8 | x8 | x8 | x8 | x8 | x8 | x8 | x8 | x8 | x8 | x8 | x8 | x8 | %309
 x8 | x8 | x8 | x8 | x8 | x8 | x8 | x8 | x8 |[K:treble] x8 | x8 | x8 | x8 | x8 | x8 | x8 | %325
 x4[K:bass] x4 | x8 | x8 | x8 | x8 | x8 | x8 | x8 | x8 | x8 | x8 | x8 | x8 | x8 | x8 | x8 | x8 | %342
 x8 | x8 | x8 | x8 | x8 | x8 | x8 | x8 |] %350
V:9
 x8 | x8 | x8 | x8 | x8 | x8 | x8 | x8 | x8 | x8 | x8 | x8 | x8 | x8 |[K:treble] x8 | x8 | x8 | %17
 x8 | x8 | x8 | x8 | x8 | x8 | x8 | x8 | x8 | x8 | x8 | x8 | x8 | x8 | x8 | x8 | x4[K:bass] x4 | %34
 x8 | x8 | x8 | x8 | x8 | x8 | x8 | x8 | x8 | x8 | x8 | x8 | x8 | x8 | x8 | x8 | x6[K:treble] x2 | %51
 x8 | x8 | x8 | x8 | x8 | x8 | x8 | x8 | x8 | x8 |[K:bass] x8 | x8 | x8 | x8 | x8 | x8 | x8 | x8 | %69
 x8 | x8 | x2[K:treble] x6 | x8 | x8 | x8 | x2[K:bass] x6 | x8 | x8 | x8 | x8 | x8 | x8 | x8 | x8 | %84
 x4 ^A,2 C2 | x8 | x8 | x8 | x8 | x8 | x8 | x8 | x8 | x8 | x8 | x8 | x8 | x8 | x8 | x8 | x8 | x8 | %102
 x8 | x8 | x8 | x8 | x8 | x8 | x8 | x8 | x8 | x8 | x8 | x8 | x8 | x8 | x8 | x8 | x8 | x8 | x8 | %121
 x8 | x8 | x8 | x8 | x8 | x8 | x8 | x8 | x8 | x8 | x8 | x9/2[K:treble] x7/2 | x8 |[K:bass] x8 | %135
 x8 | x8 | x8 | x8 | x8 | x8 | x8 | x8 | x8 | x8 | x8 | x8 | x8 | x8 | x8 | x8 | x8 | x8 | x8 | %154
 x8 | x8 | x8 | x8 | x8 | x8 | x8 | x8 | x8 | x8 | x8 | x8 | x8 | x8 | x8 | x6[K:treble] x2 | x8 | %171
 x8 |[K:bass] x8 |[K:treble] x8 | x8 | x2[K:bass] x6 | x8 | x8 | x8 | x8 | x8 | x8 | x8 | %183
 x2[K:treble] x6 | x8 | x8 | x8 |[K:bass] x8 | x8 | x8 | x8 | x8 | x8 | x8 | x8 | x8 | x8 | x8 | %198
 x8 | x8 | x8 | x8 | x8 | x8 | x8 | x8 | x8 | x8 | x8 | x8 | x8 | x8 | x8 | x8 |[K:treble] x8 | %215
 x8 | x8 | x8 | x8 | x8 | x8 |[K:bass] x8 | x[K:treble] x7 | x8 | x8 | x8 | x8 | x8 | x8 | x8 | %230
 x8 | x8 | x8 | x2[K:bass] x6 | x8 | x8 | x8 | x2[K:treble] x6 | x8 | x8 | x8 | x8 | x8 | x8 | x8 | %245
 x8 | x8 | x8 | x8 | x8 | x8 |[K:bass] x8 | x8 | x8 | x8 | x8 | x8 | x8 | x8 | x8 | x8 | x8 | x8 | %263
 x8 | x8 | x8 | x8 | x8 | x8 | x8 | x8 | x8 | x8 | x8 | x8 | x8 | x8 | x8 | x8 | x8 | x8 | x8 | %282
 x8 | x8 | x8 | x8 | x8 | x8 | x8 |[K:treble] x8 | x8 | x8 | x8 | x8 | x8 | x8 | x4[K:bass] x4 | %297
 x8 | x8 | x8 | x8 | x8 | x8 | x8 | x8 | x8 | x8 | x8 | x8 | x8 | x8 | x8 | x8 | x8 | x8 | x8 | %316
 x8 | x8 |[K:treble] x8 | x8 | x8 | x8 | x8 | x8 | x8 | x4[K:bass] x4 | x8 | x8 | x8 | x8 | x8 | %331
 x8 | x8 | x8 | x8 | x8 | x8 | x8 | x8 | x8 | x8 | x8 | x8 | x8 | x8 | x8 | x8 | x8 | x8 | x8 |] %350

